<URProgram name="BENV_2001_2" installation="default" installationRelativePath="default" createdIn="3.15.6" lastSavedIn="3.15.6">
  <children>
    <MainProgram runOnlyOnce="true" InitVariablesNode="false">
      <children>
        <Script type="File">
          <cachedContents>def Program():
  DFL_Stabillo_Mini_Tcp = p[-0.0746, 0.0746, 0.0213, -0.61394, -1.48219, -0.61394]
  DFL_Stabillo_Mini_Weight = 0.143
  DFL_Stabillo_Mini_Cog = [-0.0746, 0.0746, 0.0213]
  Speed000 = 0.1
  DefaultZone = 0
  Zone000 = 0.00001
  set_tcp(DFL_Stabillo_Mini_Tcp)
  set_payload(DFL_Stabillo_Mini_Weight, DFL_Stabillo_Mini_Cog)
  movej([0, -0.8727, -1.3963, -1.5708, 1.5708, 0], a=3.1416, v=0.3142, r=DefaultZone)
  popup ("Please ensure you Pen and paper is Correctly loaded, that DFL staff have set up the Robot, and that you have reviewed the simulation in Grasshopper or on the SmartPad", title="Operator_Safety", warning=False, error=False, blocking=True)
  movej([0.4255, -1.8549, -1.5188, -2.9369, 0.4227, 0.8072], a=3.1416, v=0.2861, r=DefaultZone)
  popup ("DFL_Stabillo_MiniCustom_Stabillo_magenta for Black layer and click continue to resume", title="Black_change", warning=False, error=False, blocking=True)
  movel(p[0.5188, -0.01433, 0.003, -2.22144, 2.22144, 0], a=1, v=Speed000, r=Zone000)
  movel(p[0.50949, -0.01969, 0.003, -2.22144, 2.22144, 0], a=1, v=Speed000, r=Zone000)
  movel(p[0.5094, -0.01973, 0.003, -2.22144, 2.22144, 0], a=1, v=Speed000, r=Zone000)
  movel(p[0.5093, -0.01974, 0.003, -2.22144, 2.22144, 0], a=1, v=Speed000, r=Zone000)
  movel(p[0.5092, -0.01973, 0.003, -2.22144, 2.22144, 0], a=1, v=Speed000, r=Zone000)
  movel(p[0.5091, -0.01969, 0.003, -2.22144, 2.22144, 0], a=1, v=Speed000, r=Zone000)
  movel(p[0.50898, -0.01957, 0.003, -2.22144, 2.22144, 0], a=1, v=Speed000, r=Zone000)
  movel(p[0.50326, -0.01628, 0.003, -2.22144, 2.22144, 0], a=1, v=Speed000, r=Zone000)
  movel(p[0.50031, -0.01785, 0.003, -2.22144, 2.22144, 0], a=1, v=Speed000, r=Zone000)
  movel(p[0.50025, -0.01796, 0.003, -2.22144, 2.22144, 0], a=1, v=Speed000, r=Zone000)
  movel(p[0.50015, -0.01805, 0.003, -2.22144, 2.22144, 0], a=1, v=Speed000, r=Zone000)
  movel(p[0.50005, -0.01809, 0.003, -2.22144, 2.22144, 0], a=1, v=Speed000, r=Zone000)
  movel(p[0.49995, -0.01811, 0.003, -2.22144, 2.22144, 0], a=1, v=Speed000, r=Zone000)
  movel(p[0.49986, -0.01809, 0.003, -2.22144, 2.22144, 0], a=1, v=Speed000, r=Zone000)
  movel(p[0.49976, -0.01806, 0.003, -2.22144, 2.22144, 0], a=1, v=Speed000, r=Zone000)
  movel(p[0.49667, -0.01639, 0.003, -2.22144, 2.22144, 0], a=1, v=Speed000, r=Zone000)
  movel(p[0.4909, -0.01971, 0.003, -2.22144, 2.22144, 0], a=1, v=Speed000, r=Zone000)
  movel(p[0.4908, -0.01975, 0.003, -2.22144, 2.22144, 0], a=1, v=Speed000, r=Zone000)
  movel(p[0.4907, -0.01976, 0.003, -2.22144, 2.22144, 0], a=1, v=Speed000, r=Zone000)
  movel(p[0.4906, -0.01975, 0.003, -2.22144, 2.22144, 0], a=1, v=Speed000, r=Zone000)
  movel(p[0.49051, -0.01971, 0.003, -2.22144, 2.22144, 0], a=1, v=Speed000, r=Zone000)
  movel(p[0.49044, -0.01966, 0.003, -2.22144, 2.22144, 0], a=1, v=Speed000, r=Zone000)
  movel(p[0.49039, -0.01959, 0.003, -2.22144, 2.22144, 0], a=1, v=Speed000, r=Zone000)
  movel(p[0.4812, -0.0143, 0.003, -2.22144, 2.22144, 0], a=1, v=Speed000, r=Zone000)
  movel(p[0.48112, -0.01424, 0.003, -2.22144, 2.22144, 0], a=1, v=Speed000, r=Zone000)
  movel(p[0.48106, -0.01416, 0.003, -2.22144, 2.22144, 0], a=1, v=Speed000, r=Zone000)
  movel(p[0.48102, -0.01406, 0.003, -2.22144, 2.22144, 0], a=1, v=Speed000, r=Zone000)
  movel(p[0.48101, -0.01396, 0.003, -2.22144, 2.22144, 0], a=1, v=Speed000, r=Zone000)
  movel(p[0.48101, -0.00202, 0.003, -2.22144, 2.22144, 0], a=1, v=Speed000, r=Zone000)
  movel(p[0.48101, -0.00198, 0.003, -2.22144, 2.22144, 0], a=1, v=Speed000, r=Zone000)
  movel(p[0.48102, -0.00194, 0.003, -2.22144, 2.22144, 0], a=1, v=Speed000, r=Zone000)
  movel(p[0.48101, -0.00186, 0.003, -2.22144, 2.22144, 0], a=1, v=Speed000, r=Zone000)
  movel(p[0.48101, 0.01009, 0.003, -2.22144, 2.22144, 0], a=1, v=Speed000, r=Zone000)
  movel(p[0.48101, 0.01011, 0.003, -2.22144, 2.22144, 0], a=1, v=Speed000, r=Zone000)
  movel(p[0.48101, 0.01013, 0.003, -2.22144, 2.22144, 0], a=1, v=Speed000, r=Zone000)
  movel(p[0.48111, 0.01068, 0.003, -2.22144, 2.22144, 0], a=1, v=Speed000, r=Zone000)
  movel(p[0.48124, 0.01121, 0.003, -2.22144, 2.22144, 0], a=1, v=Speed000, r=Zone000)
  movel(p[0.48144, 0.01183, 0.003, -2.22144, 2.22144, 0], a=1, v=Speed000, r=Zone000)
  movel(p[0.48158, 0.01216, 0.003, -2.22144, 2.22144, 0], a=1, v=Speed000, r=Zone000)
  movel(p[0.48173, 0.01249, 0.003, -2.22144, 2.22144, 0], a=1, v=Speed000, r=Zone000)
  movel(p[0.48192, 0.01281, 0.003, -2.22144, 2.22144, 0], a=1, v=Speed000, r=Zone000)
  movel(p[0.48212, 0.01313, 0.003, -2.22144, 2.22144, 0], a=1, v=Speed000, r=Zone000)
  movel(p[0.48236, 0.01342, 0.003, -2.22144, 2.22144, 0], a=1, v=Speed000, r=Zone000)
  movel(p[0.48262, 0.01369, 0.003, -2.22144, 2.22144, 0], a=1, v=Speed000, r=Zone000)
  movel(p[0.48292, 0.01392, 0.003, -2.22144, 2.22144, 0], a=1, v=Speed000, r=Zone000)
  movel(p[0.48325, 0.01412, 0.003, -2.22144, 2.22144, 0], a=1, v=Speed000, r=Zone000)
  movel(p[0.48346, 0.01421, 0.003, -2.22144, 2.22144, 0], a=1, v=Speed000, r=Zone000)
  movel(p[0.48369, 0.01428, 0.003, -2.22144, 2.22144, 0], a=1, v=Speed000, r=Zone000)
  movel(p[0.48374, 0.01433, 0.003, -2.22144, 2.22144, 0], a=1, v=Speed000, r=Zone000)
  movel(p[0.49219, 0.01931, 0.003, -2.22144, 2.22144, 0], a=1, v=Speed000, r=Zone000)
  movel(p[0.4923, 0.01935, 0.003, -2.22144, 2.22144, 0], a=1, v=Speed000, r=Zone000)
  movel(p[0.49255, 0.01949, 0.003, -2.22144, 2.22144, 0], a=1, v=Speed000, r=Zone000)
  movel(p[0.49291, 0.01964, 0.003, -2.22144, 2.22144, 0], a=1, v=Speed000, r=Zone000)
  movel(p[0.49328, 0.01972, 0.003, -2.22144, 2.22144, 0], a=1, v=Speed000, r=Zone000)
  movel(p[0.49366, 0.01976, 0.003, -2.22144, 2.22144, 0], a=1, v=Speed000, r=Zone000)
  movel(p[0.49406, 0.01973, 0.003, -2.22144, 2.22144, 0], a=1, v=Speed000, r=Zone000)
  movel(p[0.49447, 0.01966, 0.003, -2.22144, 2.22144, 0], a=1, v=Speed000, r=Zone000)
  movel(p[0.4949, 0.01952, 0.003, -2.22144, 2.22144, 0], a=1, v=Speed000, r=Zone000)
  movel(p[0.49534, 0.01934, 0.003, -2.22144, 2.22144, 0], a=1, v=Speed000, r=Zone000)
  movel(p[0.49579, 0.01909, 0.003, -2.22144, 2.22144, 0], a=1, v=Speed000, r=Zone000)
  movel(p[0.49619, 0.01885, 0.003, -2.22144, 2.22144, 0], a=1, v=Speed000, r=Zone000)
  movel(p[0.49656, 0.01858, 0.003, -2.22144, 2.22144, 0], a=1, v=Speed000, r=Zone000)
  movel(p[0.49691, 0.01829, 0.003, -2.22144, 2.22144, 0], a=1, v=Speed000, r=Zone000)
  movel(p[0.49723, 0.01799, 0.003, -2.22144, 2.22144, 0], a=1, v=Speed000, r=Zone000)
  movel(p[0.49754, 0.01767, 0.003, -2.22144, 2.22144, 0], a=1, v=Speed000, r=Zone000)
  movel(p[0.49783, 0.01734, 0.003, -2.22144, 2.22144, 0], a=1, v=Speed000, r=Zone000)
  movel(p[0.49809, 0.017, 0.003, -2.22144, 2.22144, 0], a=1, v=Speed000, r=Zone000)
  movel(p[0.49834, 0.01666, 0.003, -2.22144, 2.22144, 0], a=1, v=Speed000, r=Zone000)
  movel(p[0.49878, 0.01594, 0.003, -2.22144, 2.22144, 0], a=1, v=Speed000, r=Zone000)
  movel(p[0.49915, 0.0152, 0.003, -2.22144, 2.22144, 0], a=1, v=Speed000, r=Zone000)
  movel(p[0.49946, 0.01447, 0.003, -2.22144, 2.22144, 0], a=1, v=Speed000, r=Zone000)
  movel(p[0.49972, 0.01374, 0.003, -2.22144, 2.22144, 0], a=1, v=Speed000, r=Zone000)
  movel(p[0.49992, 0.01305, 0.003, -2.22144, 2.22144, 0], a=1, v=Speed000, r=Zone000)
  movel(p[0.50008, 0.01239, 0.003, -2.22144, 2.22144, 0], a=1, v=Speed000, r=Zone000)
  movel(p[0.5002, 0.01179, 0.003, -2.22144, 2.22144, 0], a=1, v=Speed000, r=Zone000)
  movel(p[0.50029, 0.01126, 0.003, -2.22144, 2.22144, 0], a=1, v=Speed000, r=Zone000)
  movel(p[0.50038, 0.01045, 0.003, -2.22144, 2.22144, 0], a=1, v=Speed000, r=Zone000)
  movel(p[0.5004, 0.0101, 0.003, -2.22144, 2.22144, 0], a=1, v=Speed000, r=Zone000)
  movel(p[0.5004, 0.00621, 0.003, -2.22144, 2.22144, 0], a=1, v=Speed000, r=Zone000)
  movel(p[0.50911, 0.0112, 0.003, -2.22144, 2.22144, 0], a=1, v=Speed000, r=Zone000)
  movel(p[0.50915, 0.01122, 0.003, -2.22144, 2.22144, 0], a=1, v=Speed000, r=Zone000)
  movel(p[0.50918, 0.01123, 0.003, -2.22144, 2.22144, 0], a=1, v=Speed000, r=Zone000)
  movel(p[0.50919, 0.01123, 0.003, -2.22144, 2.22144, 0], a=1, v=Speed000, r=Zone000)
  movel(p[0.50929, 0.01125, 0.003, -2.22144, 2.22144, 0], a=1, v=Speed000, r=Zone000)
  movel(p[0.50932, 0.01125, 0.003, -2.22144, 2.22144, 0], a=1, v=Speed000, r=Zone000)
  movel(p[0.50941, 0.01123, 0.003, -2.22144, 2.22144, 0], a=1, v=Speed000, r=Zone000)
  movel(p[0.50944, 0.01122, 0.003, -2.22144, 2.22144, 0], a=1, v=Speed000, r=Zone000)
  movel(p[0.50949, 0.0112, 0.003, -2.22144, 2.22144, 0], a=1, v=Speed000, r=Zone000)
  movel(p[0.50951, 0.01119, 0.003, -2.22144, 2.22144, 0], a=1, v=Speed000, r=Zone000)
  movel(p[0.50954, 0.01116, 0.003, -2.22144, 2.22144, 0], a=1, v=Speed000, r=Zone000)
  movel(p[0.5096, 0.01111, 0.003, -2.22144, 2.22144, 0], a=1, v=Speed000, r=Zone000)
  movel(p[0.50961, 0.01109, 0.003, -2.22144, 2.22144, 0], a=1, v=Speed000, r=Zone000)
  movel(p[0.51879, -0.00164, 0.003, -2.22144, 2.22144, 0], a=1, v=Speed000, r=Zone000)
  movel(p[0.51891, -0.00176, 0.003, -2.22144, 2.22144, 0], a=1, v=Speed000, r=Zone000)
  movel(p[0.51897, -0.00193, 0.003, -2.22144, 2.22144, 0], a=1, v=Speed000, r=Zone000)
  movel(p[0.51897, -0.00193, 0.003, -2.22144, 2.22144, 0], a=1, v=Speed000, r=Zone000)
  movel(p[0.51898, -0.00195, 0.003, -2.22144, 2.22144, 0], a=1, v=Speed000, r=Zone000)
  movel(p[0.51899, -0.00205, 0.003, -2.22144, 2.22144, 0], a=1, v=Speed000, r=Zone000)
  movel(p[0.49804, 0.01564, 0.003, -2.22144, 2.22144, 0], a=1, v=Speed000, r=Zone000)
  movel(p[0.49804, 0.01564, 0.008, -2.22144, 2.22144, 0], a=1, v=Speed000, r=Zone000)
  movel(p[0.49804, 0.01564, 0.003, -2.22144, 2.22144, 0], a=1, v=Speed000, r=Zone000)
  movel(p[0.4954, 0.01842, 0.003, -2.22144, 2.22144, 0], a=1, v=Speed000, r=Zone000)
  movel(p[0.49504, 0.01862, 0.003, -2.22144, 2.22144, 0], a=1, v=Speed000, r=Zone000)
  movel(p[0.49469, 0.01877, 0.003, -2.22144, 2.22144, 0], a=1, v=Speed000, r=Zone000)
  movel(p[0.49435, 0.01888, 0.003, -2.22144, 2.22144, 0], a=1, v=Speed000, r=Zone000)
  movel(p[0.49403, 0.01895, 0.003, -2.22144, 2.22144, 0], a=1, v=Speed000, r=Zone000)
  movel(p[0.49373, 0.01898, 0.003, -2.22144, 2.22144, 0], a=1, v=Speed000, r=Zone000)
  movel(p[0.49344, 0.01896, 0.003, -2.22144, 2.22144, 0], a=1, v=Speed000, r=Zone000)
  movel(p[0.49316, 0.0189, 0.003, -2.22144, 2.22144, 0], a=1, v=Speed000, r=Zone000)
  movel(p[0.4929, 0.0188, 0.003, -2.22144, 2.22144, 0], a=1, v=Speed000, r=Zone000)
  movel(p[0.49268, 0.01867, 0.003, -2.22144, 2.22144, 0], a=1, v=Speed000, r=Zone000)
  movel(p[0.49249, 0.01852, 0.003, -2.22144, 2.22144, 0], a=1, v=Speed000, r=Zone000)
  movel(p[0.4923, 0.01835, 0.003, -2.22144, 2.22144, 0], a=1, v=Speed000, r=Zone000)
  movel(p[0.49214, 0.01815, 0.003, -2.22144, 2.22144, 0], a=1, v=Speed000, r=Zone000)
  movel(p[0.49185, 0.01772, 0.003, -2.22144, 2.22144, 0], a=1, v=Speed000, r=Zone000)
  movel(p[0.49162, 0.01726, 0.003, -2.22144, 2.22144, 0], a=1, v=Speed000, r=Zone000)
  movel(p[0.49143, 0.0168, 0.003, -2.22144, 2.22144, 0], a=1, v=Speed000, r=Zone000)
  movel(p[0.49129, 0.01635, 0.003, -2.22144, 2.22144, 0], a=1, v=Speed000, r=Zone000)
  movel(p[0.49113, 0.01566, 0.003, -2.22144, 2.22144, 0], a=1, v=Speed000, r=Zone000)
  movel(p[0.48907, 0.01123, 0.003, -2.22144, 2.22144, 0], a=1, v=Speed000, r=Zone000)
  movel(p[0.48907, 0.01123, 0.008, -2.22144, 2.22144, 0], a=1, v=Speed000, r=Zone000)
  movel(p[0.48907, 0.01123, 0.003, -2.22144, 2.22144, 0], a=1, v=Speed000, r=Zone000)
  movel(p[0.48673, 0.01262, 0.003, -2.22144, 2.22144, 0], a=1, v=Speed000, r=Zone000)
  movel(p[0.48673, 0.01262, 0.008, -2.22144, 2.22144, 0], a=1, v=Speed000, r=Zone000)
  movel(p[0.48673, 0.01262, 0.003, -2.22144, 2.22144, 0], a=1, v=Speed000, r=Zone000)
  movel(p[0.48678, 0.01354, 0.003, -2.22144, 2.22144, 0], a=1, v=Speed000, r=Zone000)
  movel(p[0.49032, 0.01552, 0.003, -2.22144, 2.22144, 0], a=1, v=Speed000, r=Zone000)
  movel(p[0.49047, 0.01627, 0.003, -2.22144, 2.22144, 0], a=1, v=Speed000, r=Zone000)
  movel(p[0.49066, 0.01693, 0.003, -2.22144, 2.22144, 0], a=1, v=Speed000, r=Zone000)
  movel(p[0.49079, 0.0173, 0.003, -2.22144, 2.22144, 0], a=1, v=Speed000, r=Zone000)
  movel(p[0.49095, 0.01767, 0.003, -2.22144, 2.22144, 0], a=1, v=Speed000, r=Zone000)
  movel(p[0.48359, 0.01342, 0.003, -2.22144, 2.22144, 0], a=1, v=Speed000, r=Zone000)
  movel(p[0.48342, 0.01333, 0.003, -2.22144, 2.22144, 0], a=1, v=Speed000, r=Zone000)
  movel(p[0.48326, 0.01321, 0.003, -2.22144, 2.22144, 0], a=1, v=Speed000, r=Zone000)
  movel(p[0.48297, 0.01294, 0.003, -2.22144, 2.22144, 0], a=1, v=Speed000, r=Zone000)
  movel(p[0.48271, 0.01262, 0.003, -2.22144, 2.22144, 0], a=1, v=Speed000, r=Zone000)
  movel(p[0.4825, 0.01227, 0.003, -2.22144, 2.22144, 0], a=1, v=Speed000, r=Zone000)
  movel(p[0.48231, 0.0119, 0.003, -2.22144, 2.22144, 0], a=1, v=Speed000, r=Zone000)
  movel(p[0.48216, 0.01153, 0.003, -2.22144, 2.22144, 0], a=1, v=Speed000, r=Zone000)
  movel(p[0.48195, 0.01083, 0.003, -2.22144, 2.22144, 0], a=1, v=Speed000, r=Zone000)
  movel(p[0.49031, -0.01865, 0.008, -2.22144, 2.22144, 0], a=1, v=Speed000, r=Zone000)
  movel(p[0.49031, -0.01865, 0.003, -2.22144, 2.22144, 0], a=1, v=Speed000, r=Zone000)
  movel(p[0.48178, -0.01374, 0.003, -2.22144, 2.22144, 0], a=1, v=Speed000, r=Zone000)
  movel(p[0.48178, -0.00269, 0.003, -2.22144, 2.22144, 0], a=1, v=Speed000, r=Zone000)
  movel(p[0.4836, -0.00373, 0.003, -2.22144, 2.22144, 0], a=1, v=Speed000, r=Zone000)
  movel(p[0.49031, -0.00758, 0.003, -2.22144, 2.22144, 0], a=1, v=Speed000, r=Zone000)
  movel(p[0.49031, -0.01865, 0.003, -2.22144, 2.22144, 0], a=1, v=Speed000, r=Zone000)
  movel(p[0.49031, -0.01865, 0.008, -2.22144, 2.22144, 0], a=1, v=Speed000, r=Zone000)
  movel(p[0.49031, -0.01865, 0.003, -2.22144, 2.22144, 0], a=1, v=Speed000, r=Zone000)
  movel(p[0.49031, -0.00758, 0.003, -2.22144, 2.22144, 0], a=1, v=Speed000, r=Zone000)
  movel(p[0.4836, -0.00373, 0.003, -2.22144, 2.22144, 0], a=1, v=Speed000, r=Zone000)
  movel(p[0.48178, -0.00269, 0.003, -2.22144, 2.22144, 0], a=1, v=Speed000, r=Zone000)
  movel(p[0.48178, -0.01374, 0.003, -2.22144, 2.22144, 0], a=1, v=Speed000, r=Zone000)
  movel(p[0.49031, -0.01865, 0.003, -2.22144, 2.22144, 0], a=1, v=Speed000, r=Zone000)
  movel(p[0.49031, -0.01865, 0.008, -2.22144, 2.22144, 0], a=1, v=Speed000, r=Zone000)
  movel(p[0.49031, -0.00655, 0.008, -2.22144, 2.22144, 0], a=1, v=Speed000, r=Zone000)
  movel(p[0.49031, -0.00655, 0.003, -2.22144, 2.22144, 0], a=1, v=Speed000, r=Zone000)
  movel(p[0.48233, -0.00195, 0.003, -2.22144, 2.22144, 0], a=1, v=Speed000, r=Zone000)
  movel(p[0.49031, 0.00252, 0.003, -2.22144, 2.22144, 0], a=1, v=Speed000, r=Zone000)
  movel(p[0.49031, -0.00655, 0.003, -2.22144, 2.22144, 0], a=1, v=Speed000, r=Zone000)
  movel(p[0.49031, -0.00655, 0.008, -2.22144, 2.22144, 0], a=1, v=Speed000, r=Zone000)
  movel(p[0.49031, -0.00655, 0.003, -2.22144, 2.22144, 0], a=1, v=Speed000, r=Zone000)
  movel(p[0.49031, 0.00252, 0.003, -2.22144, 2.22144, 0], a=1, v=Speed000, r=Zone000)
  movel(p[0.48233, -0.00195, 0.003, -2.22144, 2.22144, 0], a=1, v=Speed000, r=Zone000)
  movel(p[0.49031, -0.00655, 0.003, -2.22144, 2.22144, 0], a=1, v=Speed000, r=Zone000)
  movel(p[0.49031, -0.00655, 0.008, -2.22144, 2.22144, 0], a=1, v=Speed000, r=Zone000)
  movel(p[0.49031, 0.00341, 0.008, -2.22144, 2.22144, 0], a=1, v=Speed000, r=Zone000)
  movel(p[0.49031, 0.00341, 0.003, -2.22144, 2.22144, 0], a=1, v=Speed000, r=Zone000)
  movel(p[0.48178, -0.00136, 0.003, -2.22144, 2.22144, 0], a=1, v=Speed000, r=Zone000)
  movel(p[0.48178, 0.00941, 0.003, -2.22144, 2.22144, 0], a=1, v=Speed000, r=Zone000)
  movel(p[0.49031, 0.00448, 0.003, -2.22144, 2.22144, 0], a=1, v=Speed000, r=Zone000)
  movel(p[0.49031, 0.00341, 0.003, -2.22144, 2.22144, 0], a=1, v=Speed000, r=Zone000)
  movel(p[0.49031, 0.00341, 0.008, -2.22144, 2.22144, 0], a=1, v=Speed000, r=Zone000)
  movel(p[0.49031, 0.00341, 0.003, -2.22144, 2.22144, 0], a=1, v=Speed000, r=Zone000)
  movel(p[0.49031, 0.00448, 0.003, -2.22144, 2.22144, 0], a=1, v=Speed000, r=Zone000)
  movel(p[0.48178, 0.00941, 0.003, -2.22144, 2.22144, 0], a=1, v=Speed000, r=Zone000)
  movel(p[0.48178, -0.00136, 0.003, -2.22144, 2.22144, 0], a=1, v=Speed000, r=Zone000)
  movel(p[0.49031, 0.00341, 0.003, -2.22144, 2.22144, 0], a=1, v=Speed000, r=Zone000)
  movel(p[0.49031, 0.00341, 0.008, -2.22144, 2.22144, 0], a=1, v=Speed000, r=Zone000)
  movel(p[0.49104, 0.0054, 0.003, -2.22144, 2.22144, 0], a=1, v=Speed000, r=Zone000)
  movel(p[0.49104, 0.0054, 0.008, -2.22144, 2.22144, 0], a=1, v=Speed000, r=Zone000)
  movel(p[0.49104, 0.0054, 0.003, -2.22144, 2.22144, 0], a=1, v=Speed000, r=Zone000)
  movel(p[0.49624, -0.01573, 0.008, -2.22144, 2.22144, 0], a=1, v=Speed000, r=Zone000)
  movel(p[0.49624, -0.01573, 0.003, -2.22144, 2.22144, 0], a=1, v=Speed000, r=Zone000)
  movel(p[0.49109, -0.0187, 0.003, -2.22144, 2.22144, 0], a=1, v=Speed000, r=Zone000)
  movel(p[0.49109, -0.00762, 0.003, -2.22144, 2.22144, 0], a=1, v=Speed000, r=Zone000)
  movel(p[0.49625, -0.00468, 0.003, -2.22144, 2.22144, 0], a=1, v=Speed000, r=Zone000)
  movel(p[0.49625, -0.01573, 0.003, -2.22144, 2.22144, 0], a=1, v=Speed000, r=Zone000)
  movel(p[0.49625, -0.01573, 0.008, -2.22144, 2.22144, 0], a=1, v=Speed000, r=Zone000)
  movel(p[0.49625, -0.01573, 0.003, -2.22144, 2.22144, 0], a=1, v=Speed000, r=Zone000)
  movel(p[0.49625, -0.00468, 0.003, -2.22144, 2.22144, 0], a=1, v=Speed000, r=Zone000)
  movel(p[0.49109, -0.00762, 0.003, -2.22144, 2.22144, 0], a=1, v=Speed000, r=Zone000)
  movel(p[0.49109, -0.0187, 0.003, -2.22144, 2.22144, 0], a=1, v=Speed000, r=Zone000)
  movel(p[0.49624, -0.01573, 0.003, -2.22144, 2.22144, 0], a=1, v=Speed000, r=Zone000)
  movel(p[0.49624, -0.01573, 0.008, -2.22144, 2.22144, 0], a=1, v=Speed000, r=Zone000)
  movel(p[0.49109, -0.00659, 0.008, -2.22144, 2.22144, 0], a=1, v=Speed000, r=Zone000)
  movel(p[0.49109, -0.00659, 0.003, -2.22144, 2.22144, 0], a=1, v=Speed000, r=Zone000)
  movel(p[0.49109, 0.00258, 0.003, -2.22144, 2.22144, 0], a=1, v=Speed000, r=Zone000)
  movel(p[0.49914, -0.00196, 0.003, -2.22144, 2.22144, 0], a=1, v=Speed000, r=Zone000)
  movel(p[0.49109, -0.00659, 0.003, -2.22144, 2.22144, 0], a=1, v=Speed000, r=Zone000)
  movel(p[0.49109, -0.00659, 0.008, -2.22144, 2.22144, 0], a=1, v=Speed000, r=Zone000)
  movel(p[0.49109, -0.00659, 0.003, -2.22144, 2.22144, 0], a=1, v=Speed000, r=Zone000)
  movel(p[0.49914, -0.00196, 0.003, -2.22144, 2.22144, 0], a=1, v=Speed000, r=Zone000)
  movel(p[0.49109, 0.00258, 0.003, -2.22144, 2.22144, 0], a=1, v=Speed000, r=Zone000)
  movel(p[0.49109, -0.00659, 0.003, -2.22144, 2.22144, 0], a=1, v=Speed000, r=Zone000)
  movel(p[0.49109, -0.00659, 0.008, -2.22144, 2.22144, 0], a=1, v=Speed000, r=Zone000)
  movel(p[0.49956, -0.01706, 0.008, -2.22144, 2.22144, 0], a=1, v=Speed000, r=Zone000)
  movel(p[0.49956, -0.01706, 0.003, -2.22144, 2.22144, 0], a=1, v=Speed000, r=Zone000)
  movel(p[0.49746, -0.01593, 0.003, -2.22144, 2.22144, 0], a=1, v=Speed000, r=Zone000)
  movel(p[0.49956, -0.01472, 0.003, -2.22144, 2.22144, 0], a=1, v=Speed000, r=Zone000)
  movel(p[0.49956, -0.01706, 0.003, -2.22144, 2.22144, 0], a=1, v=Speed000, r=Zone000)
  movel(p[0.49956, -0.01706, 0.008, -2.22144, 2.22144, 0], a=1, v=Speed000, r=Zone000)
  movel(p[0.49956, -0.01706, 0.003, -2.22144, 2.22144, 0], a=1, v=Speed000, r=Zone000)
  movel(p[0.49956, -0.01472, 0.003, -2.22144, 2.22144, 0], a=1, v=Speed000, r=Zone000)
  movel(p[0.49746, -0.01593, 0.003, -2.22144, 2.22144, 0], a=1, v=Speed000, r=Zone000)
  movel(p[0.49956, -0.01706, 0.003, -2.22144, 2.22144, 0], a=1, v=Speed000, r=Zone000)
  movel(p[0.49956, -0.01706, 0.008, -2.22144, 2.22144, 0], a=1, v=Speed000, r=Zone000)
  movel(p[0.49956, -0.01381, 0.008, -2.22144, 2.22144, 0], a=1, v=Speed000, r=Zone000)
  movel(p[0.49956, -0.01381, 0.003, -2.22144, 2.22144, 0], a=1, v=Speed000, r=Zone000)
  movel(p[0.49702, -0.01517, 0.003, -2.22144, 2.22144, 0], a=1, v=Speed000, r=Zone000)
  movel(p[0.49702, -0.00462, 0.003, -2.22144, 2.22144, 0], a=1, v=Speed000, r=Zone000)
  movel(p[0.49956, -0.00599, 0.003, -2.22144, 2.22144, 0], a=1, v=Speed000, r=Zone000)
  movel(p[0.49956, -0.01381, 0.003, -2.22144, 2.22144, 0], a=1, v=Speed000, r=Zone000)
  movel(p[0.49956, -0.01381, 0.008, -2.22144, 2.22144, 0], a=1, v=Speed000, r=Zone000)
  movel(p[0.49956, -0.01381, 0.003, -2.22144, 2.22144, 0], a=1, v=Speed000, r=Zone000)
  movel(p[0.49956, -0.00599, 0.003, -2.22144, 2.22144, 0], a=1, v=Speed000, r=Zone000)
  movel(p[0.49702, -0.00462, 0.003, -2.22144, 2.22144, 0], a=1, v=Speed000, r=Zone000)
  movel(p[0.49702, -0.01517, 0.003, -2.22144, 2.22144, 0], a=1, v=Speed000, r=Zone000)
  movel(p[0.49956, -0.01381, 0.003, -2.22144, 2.22144, 0], a=1, v=Speed000, r=Zone000)
  movel(p[0.49956, -0.01381, 0.008, -2.22144, 2.22144, 0], a=1, v=Speed000, r=Zone000)
  movel(p[0.4996, -0.00513, 0.008, -2.22144, 2.22144, 0], a=1, v=Speed000, r=Zone000)
  movel(p[0.4996, -0.00513, 0.003, -2.22144, 2.22144, 0], a=1, v=Speed000, r=Zone000)
  movel(p[0.49746, -0.00398, 0.003, -2.22144, 2.22144, 0], a=1, v=Speed000, r=Zone000)
  movel(p[0.4996, -0.00275, 0.003, -2.22144, 2.22144, 0], a=1, v=Speed000, r=Zone000)
  movel(p[0.4996, -0.00513, 0.003, -2.22144, 2.22144, 0], a=1, v=Speed000, r=Zone000)
  movel(p[0.4996, -0.00513, 0.008, -2.22144, 2.22144, 0], a=1, v=Speed000, r=Zone000)
  movel(p[0.4996, -0.00513, 0.003, -2.22144, 2.22144, 0], a=1, v=Speed000, r=Zone000)
  movel(p[0.4996, -0.00275, 0.003, -2.22144, 2.22144, 0], a=1, v=Speed000, r=Zone000)
  movel(p[0.49746, -0.00398, 0.003, -2.22144, 2.22144, 0], a=1, v=Speed000, r=Zone000)
  movel(p[0.4996, -0.00513, 0.003, -2.22144, 2.22144, 0], a=1, v=Speed000, r=Zone000)
  movel(p[0.4996, -0.00513, 0.008, -2.22144, 2.22144, 0], a=1, v=Speed000, r=Zone000)
  movel(p[0.49962, 0.00564, 0.003, -2.22144, 2.22144, 0], a=1, v=Speed000, r=Zone000)
  movel(p[0.49962, 0.00936, 0.003, -2.22144, 2.22144, 0], a=1, v=Speed000, r=Zone000)
  movel(p[0.49962, 0.00936, 0.008, -2.22144, 2.22144, 0], a=1, v=Speed000, r=Zone000)
  movel(p[0.49962, 0.00936, 0.003, -2.22144, 2.22144, 0], a=1, v=Speed000, r=Zone000)
  movel(p[0.49962, 0.00566, 0.003, -2.22144, 2.22144, 0], a=1, v=Speed000, r=Zone000)
  movel(p[0.49962, 0.00564, 0.003, -2.22144, 2.22144, 0], a=1, v=Speed000, r=Zone000)
  movel(p[0.50969, 0.00966, 0.008, -2.22144, 2.22144, 0], a=1, v=Speed000, r=Zone000)
  movel(p[0.50969, 0.00966, 0.003, -2.22144, 2.22144, 0], a=1, v=Speed000, r=Zone000)
  movel(p[0.51717, -0.00073, 0.003, -2.22144, 2.22144, 0], a=1, v=Speed000, r=Zone000)
  movel(p[0.51375, 0.0012, 0.003, -2.22144, 2.22144, 0], a=1, v=Speed000, r=Zone000)
  movel(p[0.50969, 0.00355, 0.003, -2.22144, 2.22144, 0], a=1, v=Speed000, r=Zone000)
  movel(p[0.50969, 0.00966, 0.003, -2.22144, 2.22144, 0], a=1, v=Speed000, r=Zone000)
  movel(p[0.50969, 0.00966, 0.008, -2.22144, 2.22144, 0], a=1, v=Speed000, r=Zone000)
  movel(p[0.50969, 0.00966, 0.003, -2.22144, 2.22144, 0], a=1, v=Speed000, r=Zone000)
  movel(p[0.50969, 0.00355, 0.003, -2.22144, 2.22144, 0], a=1, v=Speed000, r=Zone000)
  movel(p[0.51375, 0.0012, 0.003, -2.22144, 2.22144, 0], a=1, v=Speed000, r=Zone000)
  movel(p[0.51717, -0.00073, 0.003, -2.22144, 2.22144, 0], a=1, v=Speed000, r=Zone000)
  movel(p[0.50969, 0.00966, 0.003, -2.22144, 2.22144, 0], a=1, v=Speed000, r=Zone000)
  movel(p[0.50969, 0.00966, 0.008, -2.22144, 2.22144, 0], a=1, v=Speed000, r=Zone000)
  movel(p[0.50891, 0.01019, 0.008, -2.22144, 2.22144, 0], a=1, v=Speed000, r=Zone000)
  movel(p[0.50891, 0.01019, 0.003, -2.22144, 2.22144, 0], a=1, v=Speed000, r=Zone000)
  movel(p[0.50891, 0.00355, 0.003, -2.22144, 2.22144, 0], a=1, v=Speed000, r=Zone000)
  movel(p[0.50395, 0.00071, 0.003, -2.22144, 2.22144, 0], a=1, v=Speed000, r=Zone000)
  movel(p[0.50056, 0.00541, 0.003, -2.22144, 2.22144, 0], a=1, v=Speed000, r=Zone000)
  movel(p[0.50891, 0.01019, 0.003, -2.22144, 2.22144, 0], a=1, v=Speed000, r=Zone000)
  movel(p[0.50891, 0.01019, 0.008, -2.22144, 2.22144, 0], a=1, v=Speed000, r=Zone000)
  movel(p[0.50891, 0.01019, 0.003, -2.22144, 2.22144, 0], a=1, v=Speed000, r=Zone000)
  movel(p[0.50056, 0.00541, 0.003, -2.22144, 2.22144, 0], a=1, v=Speed000, r=Zone000)
  movel(p[0.50395, 0.00071, 0.003, -2.22144, 2.22144, 0], a=1, v=Speed000, r=Zone000)
  movel(p[0.50891, 0.00355, 0.003, -2.22144, 2.22144, 0], a=1, v=Speed000, r=Zone000)
  movel(p[0.50891, 0.01019, 0.003, -2.22144, 2.22144, 0], a=1, v=Speed000, r=Zone000)
  movel(p[0.50891, 0.01019, 0.008, -2.22144, 2.22144, 0], a=1, v=Speed000, r=Zone000)
  movel(p[0.5004, 0.0043, 0.008, -2.22144, 2.22144, 0], a=1, v=Speed000, r=Zone000)
  movel(p[0.5004, 0.0043, 0.003, -2.22144, 2.22144, 0], a=1, v=Speed000, r=Zone000)
  movel(p[0.50327, 0.00032, 0.003, -2.22144, 2.22144, 0], a=1, v=Speed000, r=Zone000)
  movel(p[0.5004, -0.00132, 0.003, -2.22144, 2.22144, 0], a=1, v=Speed000, r=Zone000)
  movel(p[0.5004, 0.0043, 0.003, -2.22144, 2.22144, 0], a=1, v=Speed000, r=Zone000)
  movel(p[0.5004, 0.0043, 0.008, -2.22144, 2.22144, 0], a=1, v=Speed000, r=Zone000)
  movel(p[0.5004, 0.0043, 0.003, -2.22144, 2.22144, 0], a=1, v=Speed000, r=Zone000)
  movel(p[0.5004, -0.00132, 0.003, -2.22144, 2.22144, 0], a=1, v=Speed000, r=Zone000)
  movel(p[0.50327, 0.00032, 0.003, -2.22144, 2.22144, 0], a=1, v=Speed000, r=Zone000)
  movel(p[0.5004, 0.0043, 0.003, -2.22144, 2.22144, 0], a=1, v=Speed000, r=Zone000)
  movel(p[0.5004, 0.0043, 0.008, -2.22144, 2.22144, 0], a=1, v=Speed000, r=Zone000)
  movel(p[0.5004, -0.00269, 0.008, -2.22144, 2.22144, 0], a=1, v=Speed000, r=Zone000)
  movel(p[0.5004, -0.00269, 0.003, -2.22144, 2.22144, 0], a=1, v=Speed000, r=Zone000)
  movel(p[0.50246, -0.00388, 0.003, -2.22144, 2.22144, 0], a=1, v=Speed000, r=Zone000)
  movel(p[0.5004, -0.00497, 0.003, -2.22144, 2.22144, 0], a=1, v=Speed000, r=Zone000)
  movel(p[0.5004, -0.00269, 0.003, -2.22144, 2.22144, 0], a=1, v=Speed000, r=Zone000)
  movel(p[0.5004, -0.00269, 0.008, -2.22144, 2.22144, 0], a=1, v=Speed000, r=Zone000)
  movel(p[0.50034, -0.01695, 0.008, -2.22144, 2.22144, 0], a=1, v=Speed000, r=Zone000)
  movel(p[0.50034, -0.01695, 0.003, -2.22144, 2.22144, 0], a=1, v=Speed000, r=Zone000)
  movel(p[0.50034, -0.01463, 0.003, -2.22144, 2.22144, 0], a=1, v=Speed000, r=Zone000)
  movel(p[0.50126, -0.01513, 0.003, -2.22144, 2.22144, 0], a=1, v=Speed000, r=Zone000)
  movel(p[0.50246, -0.01582, 0.003, -2.22144, 2.22144, 0], a=1, v=Speed000, r=Zone000)
  movel(p[0.50034, -0.01695, 0.003, -2.22144, 2.22144, 0], a=1, v=Speed000, r=Zone000)
  movel(p[0.50034, -0.01695, 0.008, -2.22144, 2.22144, 0], a=1, v=Speed000, r=Zone000)
  movel(p[0.50034, -0.01695, 0.003, -2.22144, 2.22144, 0], a=1, v=Speed000, r=Zone000)
  movel(p[0.50246, -0.01582, 0.003, -2.22144, 2.22144, 0], a=1, v=Speed000, r=Zone000)
  movel(p[0.50126, -0.01513, 0.003, -2.22144, 2.22144, 0], a=1, v=Speed000, r=Zone000)
  movel(p[0.50034, -0.01463, 0.003, -2.22144, 2.22144, 0], a=1, v=Speed000, r=Zone000)
  movel(p[0.50034, -0.01695, 0.003, -2.22144, 2.22144, 0], a=1, v=Speed000, r=Zone000)
  movel(p[0.50034, -0.01695, 0.008, -2.22144, 2.22144, 0], a=1, v=Speed000, r=Zone000)
  movel(p[0.50294, -0.01515, 0.008, -2.22144, 2.22144, 0], a=1, v=Speed000, r=Zone000)
  movel(p[0.50294, -0.01515, 0.003, -2.22144, 2.22144, 0], a=1, v=Speed000, r=Zone000)
  movel(p[0.50164, -0.01445, 0.003, -2.22144, 2.22144, 0], a=1, v=Speed000, r=Zone000)
  movel(p[0.5004, -0.01373, 0.003, -2.22144, 2.22144, 0], a=1, v=Speed000, r=Zone000)
  movel(p[0.5004, -0.00584, 0.003, -2.22144, 2.22144, 0], a=1, v=Speed000, r=Zone000)
  movel(p[0.50294, -0.0045, 0.003, -2.22144, 2.22144, 0], a=1, v=Speed000, r=Zone000)
  movel(p[0.50294, -0.01515, 0.003, -2.22144, 2.22144, 0], a=1, v=Speed000, r=Zone000)
  movel(p[0.50294, -0.01515, 0.008, -2.22144, 2.22144, 0], a=1, v=Speed000, r=Zone000)
  movel(p[0.50294, -0.01515, 0.003, -2.22144, 2.22144, 0], a=1, v=Speed000, r=Zone000)
  movel(p[0.50294, -0.0045, 0.003, -2.22144, 2.22144, 0], a=1, v=Speed000, r=Zone000)
  movel(p[0.5004, -0.00584, 0.003, -2.22144, 2.22144, 0], a=1, v=Speed000, r=Zone000)
  movel(p[0.5004, -0.01373, 0.003, -2.22144, 2.22144, 0], a=1, v=Speed000, r=Zone000)
  movel(p[0.50164, -0.01445, 0.003, -2.22144, 2.22144, 0], a=1, v=Speed000, r=Zone000)
  movel(p[0.50294, -0.01515, 0.003, -2.22144, 2.22144, 0], a=1, v=Speed000, r=Zone000)
  movel(p[0.50294, -0.01515, 0.008, -2.22144, 2.22144, 0], a=1, v=Speed000, r=Zone000)
  movel(p[0.50353, -0.00353, 0.003, -2.22144, 2.22144, 0], a=1, v=Speed000, r=Zone000)
  movel(p[0.50357, -0.00356, 0.003, -2.22144, 2.22144, 0], a=1, v=Speed000, r=Zone000)
  movel(p[0.5036, -0.00359, 0.003, -2.22144, 2.22144, 0], a=1, v=Speed000, r=Zone000)
  movel(p[0.50364, -0.00364, 0.003, -2.22144, 2.22144, 0], a=1, v=Speed000, r=Zone000)
  movel(p[0.50366, -0.00366, 0.003, -2.22144, 2.22144, 0], a=1, v=Speed000, r=Zone000)
  movel(p[0.50891, -0.01864, 0.008, -2.22144, 2.22144, 0], a=1, v=Speed000, r=Zone000)
  movel(p[0.50891, -0.01864, 0.003, -2.22144, 2.22144, 0], a=1, v=Speed000, r=Zone000)
  movel(p[0.50372, -0.01564, 0.003, -2.22144, 2.22144, 0], a=1, v=Speed000, r=Zone000)
  movel(p[0.50372, -0.00461, 0.003, -2.22144, 2.22144, 0], a=1, v=Speed000, r=Zone000)
  movel(p[0.50891, -0.0076, 0.003, -2.22144, 2.22144, 0], a=1, v=Speed000, r=Zone000)
  movel(p[0.50891, -0.01864, 0.003, -2.22144, 2.22144, 0], a=1, v=Speed000, r=Zone000)
  movel(p[0.50891, -0.01864, 0.008, -2.22144, 2.22144, 0], a=1, v=Speed000, r=Zone000)
  movel(p[0.50891, -0.01864, 0.003, -2.22144, 2.22144, 0], a=1, v=Speed000, r=Zone000)
  movel(p[0.50891, -0.0076, 0.003, -2.22144, 2.22144, 0], a=1, v=Speed000, r=Zone000)
  movel(p[0.50372, -0.00461, 0.003, -2.22144, 2.22144, 0], a=1, v=Speed000, r=Zone000)
  movel(p[0.50372, -0.01564, 0.003, -2.22144, 2.22144, 0], a=1, v=Speed000, r=Zone000)
  movel(p[0.50891, -0.01864, 0.003, -2.22144, 2.22144, 0], a=1, v=Speed000, r=Zone000)
  movel(p[0.50891, -0.01864, 0.008, -2.22144, 2.22144, 0], a=1, v=Speed000, r=Zone000)
  movel(p[0.50939, -0.00684, 0.008, -2.22144, 2.22144, 0], a=1, v=Speed000, r=Zone000)
  movel(p[0.50939, -0.00684, 0.003, -2.22144, 2.22144, 0], a=1, v=Speed000, r=Zone000)
  movel(p[0.50443, 0.00003, 0.003, -2.22144, 2.22144, 0], a=1, v=Speed000, r=Zone000)
  movel(p[0.50936, 0.00278, 0.003, -2.22144, 2.22144, 0], a=1, v=Speed000, r=Zone000)
  movel(p[0.51337, 0.00052, 0.003, -2.22144, 2.22144, 0], a=1, v=Speed000, r=Zone000)
  movel(p[0.51775, -0.00201, 0.003, -2.22144, 2.22144, 0], a=1, v=Speed000, r=Zone000)
  movel(p[0.50939, -0.00684, 0.003, -2.22144, 2.22144, 0], a=1, v=Speed000, r=Zone000)
  movel(p[0.50939, -0.00684, 0.008, -2.22144, 2.22144, 0], a=1, v=Speed000, r=Zone000)
  movel(p[0.50939, -0.00684, 0.003, -2.22144, 2.22144, 0], a=1, v=Speed000, r=Zone000)
  movel(p[0.51775, -0.00201, 0.003, -2.22144, 2.22144, 0], a=1, v=Speed000, r=Zone000)
  movel(p[0.51337, 0.00052, 0.003, -2.22144, 2.22144, 0], a=1, v=Speed000, r=Zone000)
  movel(p[0.50936, 0.00278, 0.003, -2.22144, 2.22144, 0], a=1, v=Speed000, r=Zone000)
  movel(p[0.50443, 0.00003, 0.003, -2.22144, 2.22144, 0], a=1, v=Speed000, r=Zone000)
  movel(p[0.50939, -0.00684, 0.003, -2.22144, 2.22144, 0], a=1, v=Speed000, r=Zone000)
  movel(p[0.50939, -0.00684, 0.008, -2.22144, 2.22144, 0], a=1, v=Speed000, r=Zone000)
  movel(p[0.51822, -0.01377, 0.008, -2.22144, 2.22144, 0], a=1, v=Speed000, r=Zone000)
  movel(p[0.51822, -0.01377, 0.003, -2.22144, 2.22144, 0], a=1, v=Speed000, r=Zone000)
  movel(p[0.50969, -0.01868, 0.003, -2.22144, 2.22144, 0], a=1, v=Speed000, r=Zone000)
  movel(p[0.50969, -0.00761, 0.003, -2.22144, 2.22144, 0], a=1, v=Speed000, r=Zone000)
  movel(p[0.51822, -0.00272, 0.003, -2.22144, 2.22144, 0], a=1, v=Speed000, r=Zone000)
  movel(p[0.51822, -0.01377, 0.003, -2.22144, 2.22144, 0], a=1, v=Speed000, r=Zone000)
  movel(p[0.51822, -0.01377, 0.008, -2.22144, 2.22144, 0], a=1, v=Speed000, r=Zone000)
  movel(p[0.51822, -0.01377, 0.003, -2.22144, 2.22144, 0], a=1, v=Speed000, r=Zone000)
  movel(p[0.51822, -0.00272, 0.003, -2.22144, 2.22144, 0], a=1, v=Speed000, r=Zone000)
  movel(p[0.50969, -0.00761, 0.003, -2.22144, 2.22144, 0], a=1, v=Speed000, r=Zone000)
  movel(p[0.50969, -0.01868, 0.003, -2.22144, 2.22144, 0], a=1, v=Speed000, r=Zone000)
  movel(p[0.51822, -0.01377, 0.003, -2.22144, 2.22144, 0], a=1, v=Speed000, r=Zone000)
  movel(p[0.51822, -0.01377, 0.008, -2.22144, 2.22144, 0], a=1, v=Speed000, r=Zone000)
  movel(p[0.5004, -0.00269, 0.008, -2.22144, 2.22144, 0], a=1, v=Speed000, r=Zone000)
  movel(p[0.5004, -0.00269, 0.003, -2.22144, 2.22144, 0], a=1, v=Speed000, r=Zone000)
  movel(p[0.50246, -0.00388, 0.003, -2.22144, 2.22144, 0], a=1, v=Speed000, r=Zone000)
  movel(p[0.5004, -0.00497, 0.003, -2.22144, 2.22144, 0], a=1, v=Speed000, r=Zone000)
  movel(p[0.5004, -0.00269, 0.003, -2.22144, 2.22144, 0], a=1, v=Speed000, r=Zone000)
  movel(p[0.5004, -0.00269, 0.008, -2.22144, 2.22144, 0], a=1, v=Speed000, r=Zone000)
  movel(p[0.48101, -0.01396, 0.008, -2.22144, 2.22144, 0], a=1, v=Speed000, r=Zone000)
  movel(p[0.48101, -0.01396, 0.003, -2.22144, 2.22144, 0], a=1, v=Speed000, r=Zone000)
  movel(p[0.48101, -0.00202, 0.003, -2.22144, 2.22144, 0], a=1, v=Speed000, r=Zone000)
  movel(p[0.48101, -0.00202, 0.008, -2.22144, 2.22144, 0], a=1, v=Speed000, r=Zone000)
  movel(p[0.48101, -0.00186, 0.008, -2.22144, 2.22144, 0], a=1, v=Speed000, r=Zone000)
  movel(p[0.48101, -0.00186, 0.003, -2.22144, 2.22144, 0], a=1, v=Speed000, r=Zone000)
  movel(p[0.48101, 0.01009, 0.003, -2.22144, 2.22144, 0], a=1, v=Speed000, r=Zone000)
  movel(p[0.48101, 0.01009, 0.008, -2.22144, 2.22144, 0], a=1, v=Speed000, r=Zone000)
  movel(p[0.48161, -0.01453, 0.008, -2.22144, 2.22144, 0], a=1, v=Speed000, r=Zone000)
  movel(p[0.48161, -0.01453, 0.003, -2.22144, 2.22144, 0], a=1, v=Speed000, r=Zone000)
  movel(p[0.48161, 0.01222, 0.003, -2.22144, 2.22144, 0], a=1, v=Speed000, r=Zone000)
  movel(p[0.48161, 0.01222, 0.008, -2.22144, 2.22144, 0], a=1, v=Speed000, r=Zone000)
  movel(p[0.48221, -0.01488, 0.008, -2.22144, 2.22144, 0], a=1, v=Speed000, r=Zone000)
  movel(p[0.48221, -0.01488, 0.003, -2.22144, 2.22144, 0], a=1, v=Speed000, r=Zone000)
  movel(p[0.48221, -0.01398, 0.003, -2.22144, 2.22144, 0], a=1, v=Speed000, r=Zone000)
  movel(p[0.48221, -0.01398, 0.008, -2.22144, 2.22144, 0], a=1, v=Speed000, r=Zone000)
  movel(p[0.48221, -0.00294, 0.008, -2.22144, 2.22144, 0], a=1, v=Speed000, r=Zone000)
  movel(p[0.48221, -0.00294, 0.003, -2.22144, 2.22144, 0], a=1, v=Speed000, r=Zone000)
  movel(p[0.48221, -0.00113, 0.003, -2.22144, 2.22144, 0], a=1, v=Speed000, r=Zone000)
  movel(p[0.48221, -0.00113, 0.008, -2.22144, 2.22144, 0], a=1, v=Speed000, r=Zone000)
  movel(p[0.48221, 0.00917, 0.008, -2.22144, 2.22144, 0], a=1, v=Speed000, r=Zone000)
  movel(p[0.48221, 0.00917, 0.003, -2.22144, 2.22144, 0], a=1, v=Speed000, r=Zone000)
  movel(p[0.48221, 0.01006, 0.003, -2.22144, 2.22144, 0], a=1, v=Speed000, r=Zone000)
  movel(p[0.48221, 0.01006, 0.008, -2.22144, 2.22144, 0], a=1, v=Speed000, r=Zone000)
  movel(p[0.48221, 0.01009, 0.008, -2.22144, 2.22144, 0], a=1, v=Speed000, r=Zone000)
  movel(p[0.48221, 0.01009, 0.003, -2.22144, 2.22144, 0], a=1, v=Speed000, r=Zone000)
  movel(p[0.48221, 0.01098, 0.003, -2.22144, 2.22144, 0], a=1, v=Speed000, r=Zone000)
  movel(p[0.48221, 0.01098, 0.008, -2.22144, 2.22144, 0], a=1, v=Speed000, r=Zone000)
  movel(p[0.48221, 0.01165, 0.008, -2.22144, 2.22144, 0], a=1, v=Speed000, r=Zone000)
  movel(p[0.48221, 0.01165, 0.003, -2.22144, 2.22144, 0], a=1, v=Speed000, r=Zone000)
  movel(p[0.48221, 0.01324, 0.003, -2.22144, 2.22144, 0], a=1, v=Speed000, r=Zone000)
  movel(p[0.48221, 0.01324, 0.008, -2.22144, 2.22144, 0], a=1, v=Speed000, r=Zone000)
  movel(p[0.48281, -0.01522, 0.008, -2.22144, 2.22144, 0], a=1, v=Speed000, r=Zone000)
  movel(p[0.48281, -0.01522, 0.003, -2.22144, 2.22144, 0], a=1, v=Speed000, r=Zone000)
  movel(p[0.48281, -0.01433, 0.003, -2.22144, 2.22144, 0], a=1, v=Speed000, r=Zone000)
  movel(p[0.48281, -0.01433, 0.008, -2.22144, 2.22144, 0], a=1, v=Speed000, r=Zone000)
  movel(p[0.48281, -0.00328, 0.008, -2.22144, 2.22144, 0], a=1, v=Speed000, r=Zone000)
  movel(p[0.48281, -0.00328, 0.003, -2.22144, 2.22144, 0], a=1, v=Speed000, r=Zone000)
  movel(p[0.48281, -0.00222, 0.003, -2.22144, 2.22144, 0], a=1, v=Speed000, r=Zone000)
  movel(p[0.48281, -0.00222, 0.008, -2.22144, 2.22144, 0], a=1, v=Speed000, r=Zone000)
  movel(p[0.48281, -0.00168, 0.008, -2.22144, 2.22144, 0], a=1, v=Speed000, r=Zone000)
  movel(p[0.48281, -0.00168, 0.003, -2.22144, 2.22144, 0], a=1, v=Speed000, r=Zone000)
  movel(p[0.48281, -0.00079, 0.003, -2.22144, 2.22144, 0], a=1, v=Speed000, r=Zone000)
  movel(p[0.48281, -0.00079, 0.008, -2.22144, 2.22144, 0], a=1, v=Speed000, r=Zone000)
  movel(p[0.48281, 0.00882, 0.008, -2.22144, 2.22144, 0], a=1, v=Speed000, r=Zone000)
  movel(p[0.48281, 0.00882, 0.003, -2.22144, 2.22144, 0], a=1, v=Speed000, r=Zone000)
  movel(p[0.48281, 0.00972, 0.003, -2.22144, 2.22144, 0], a=1, v=Speed000, r=Zone000)
  movel(p[0.48281, 0.00972, 0.008, -2.22144, 2.22144, 0], a=1, v=Speed000, r=Zone000)
  movel(p[0.48281, 0.01043, 0.008, -2.22144, 2.22144, 0], a=1, v=Speed000, r=Zone000)
  movel(p[0.48281, 0.01043, 0.003, -2.22144, 2.22144, 0], a=1, v=Speed000, r=Zone000)
  movel(p[0.48281, 0.01131, 0.003, -2.22144, 2.22144, 0], a=1, v=Speed000, r=Zone000)
  movel(p[0.48281, 0.01131, 0.008, -2.22144, 2.22144, 0], a=1, v=Speed000, r=Zone000)
  movel(p[0.48281, 0.01275, 0.008, -2.22144, 2.22144, 0], a=1, v=Speed000, r=Zone000)
  movel(p[0.48281, 0.01275, 0.003, -2.22144, 2.22144, 0], a=1, v=Speed000, r=Zone000)
  movel(p[0.48281, 0.01384, 0.003, -2.22144, 2.22144, 0], a=1, v=Speed000, r=Zone000)
  movel(p[0.48281, 0.01384, 0.008, -2.22144, 2.22144, 0], a=1, v=Speed000, r=Zone000)
  movel(p[0.48341, -0.01557, 0.008, -2.22144, 2.22144, 0], a=1, v=Speed000, r=Zone000)
  movel(p[0.48341, -0.01557, 0.003, -2.22144, 2.22144, 0], a=1, v=Speed000, r=Zone000)
  movel(p[0.48341, -0.01467, 0.003, -2.22144, 2.22144, 0], a=1, v=Speed000, r=Zone000)
  movel(p[0.48341, -0.01467, 0.008, -2.22144, 2.22144, 0], a=1, v=Speed000, r=Zone000)
  movel(p[0.48341, -0.00362, 0.008, -2.22144, 2.22144, 0], a=1, v=Speed000, r=Zone000)
  movel(p[0.48341, -0.00362, 0.003, -2.22144, 2.22144, 0], a=1, v=Speed000, r=Zone000)
  movel(p[0.48341, -0.00257, 0.003, -2.22144, 2.22144, 0], a=1, v=Speed000, r=Zone000)
  movel(p[0.48341, -0.00257, 0.008, -2.22144, 2.22144, 0], a=1, v=Speed000, r=Zone000)
  movel(p[0.48341, -0.00134, 0.008, -2.22144, 2.22144, 0], a=1, v=Speed000, r=Zone000)
  movel(p[0.48341, -0.00134, 0.003, -2.22144, 2.22144, 0], a=1, v=Speed000, r=Zone000)
  movel(p[0.48341, -0.00046, 0.003, -2.22144, 2.22144, 0], a=1, v=Speed000, r=Zone000)
  movel(p[0.48341, -0.00046, 0.008, -2.22144, 2.22144, 0], a=1, v=Speed000, r=Zone000)
  movel(p[0.48341, 0.00847, 0.008, -2.22144, 2.22144, 0], a=1, v=Speed000, r=Zone000)
  movel(p[0.48341, 0.00847, 0.003, -2.22144, 2.22144, 0], a=1, v=Speed000, r=Zone000)
  movel(p[0.48341, 0.00938, 0.003, -2.22144, 2.22144, 0], a=1, v=Speed000, r=Zone000)
  movel(p[0.48341, 0.00938, 0.008, -2.22144, 2.22144, 0], a=1, v=Speed000, r=Zone000)
  movel(p[0.48341, 0.01076, 0.008, -2.22144, 2.22144, 0], a=1, v=Speed000, r=Zone000)
  movel(p[0.48341, 0.01076, 0.003, -2.22144, 2.22144, 0], a=1, v=Speed000, r=Zone000)
  movel(p[0.48341, 0.01165, 0.003, -2.22144, 2.22144, 0], a=1, v=Speed000, r=Zone000)
  movel(p[0.48341, 0.01165, 0.008, -2.22144, 2.22144, 0], a=1, v=Speed000, r=Zone000)
  movel(p[0.48341, 0.01332, 0.008, -2.22144, 2.22144, 0], a=1, v=Speed000, r=Zone000)
  movel(p[0.48341, 0.01332, 0.003, -2.22144, 2.22144, 0], a=1, v=Speed000, r=Zone000)
  movel(p[0.48341, 0.01419, 0.003, -2.22144, 2.22144, 0], a=1, v=Speed000, r=Zone000)
  movel(p[0.48341, 0.01419, 0.008, -2.22144, 2.22144, 0], a=1, v=Speed000, r=Zone000)
  movel(p[0.48401, -0.01591, 0.008, -2.22144, 2.22144, 0], a=1, v=Speed000, r=Zone000)
  movel(p[0.48401, -0.01591, 0.003, -2.22144, 2.22144, 0], a=1, v=Speed000, r=Zone000)
  movel(p[0.48401, -0.01502, 0.003, -2.22144, 2.22144, 0], a=1, v=Speed000, r=Zone000)
  movel(p[0.48401, -0.01502, 0.008, -2.22144, 2.22144, 0], a=1, v=Speed000, r=Zone000)
  movel(p[0.48401, -0.00396, 0.008, -2.22144, 2.22144, 0], a=1, v=Speed000, r=Zone000)
  movel(p[0.48401, -0.00396, 0.003, -2.22144, 2.22144, 0], a=1, v=Speed000, r=Zone000)
  movel(p[0.48401, -0.00292, 0.003, -2.22144, 2.22144, 0], a=1, v=Speed000, r=Zone000)
  movel(p[0.48401, -0.00292, 0.008, -2.22144, 2.22144, 0], a=1, v=Speed000, r=Zone000)
  movel(p[0.48401, -0.00101, 0.008, -2.22144, 2.22144, 0], a=1, v=Speed000, r=Zone000)
  movel(p[0.48401, -0.00101, 0.003, -2.22144, 2.22144, 0], a=1, v=Speed000, r=Zone000)
  movel(p[0.48401, -0.00012, 0.003, -2.22144, 2.22144, 0], a=1, v=Speed000, r=Zone000)
  movel(p[0.48401, -0.00012, 0.008, -2.22144, 2.22144, 0], a=1, v=Speed000, r=Zone000)
  movel(p[0.48401, 0.00813, 0.008, -2.22144, 2.22144, 0], a=1, v=Speed000, r=Zone000)
  movel(p[0.48401, 0.00813, 0.003, -2.22144, 2.22144, 0], a=1, v=Speed000, r=Zone000)
  movel(p[0.48401, 0.00904, 0.003, -2.22144, 2.22144, 0], a=1, v=Speed000, r=Zone000)
  movel(p[0.48401, 0.00904, 0.008, -2.22144, 2.22144, 0], a=1, v=Speed000, r=Zone000)
  movel(p[0.48401, 0.0111, 0.008, -2.22144, 2.22144, 0], a=1, v=Speed000, r=Zone000)
  movel(p[0.48401, 0.0111, 0.003, -2.22144, 2.22144, 0], a=1, v=Speed000, r=Zone000)
  movel(p[0.48401, 0.01199, 0.003, -2.22144, 2.22144, 0], a=1, v=Speed000, r=Zone000)
  movel(p[0.48401, 0.01199, 0.008, -2.22144, 2.22144, 0], a=1, v=Speed000, r=Zone000)
  movel(p[0.48401, 0.01357, 0.008, -2.22144, 2.22144, 0], a=1, v=Speed000, r=Zone000)
  movel(p[0.48401, 0.01357, 0.003, -2.22144, 2.22144, 0], a=1, v=Speed000, r=Zone000)
  movel(p[0.48401, 0.01448, 0.003, -2.22144, 2.22144, 0], a=1, v=Speed000, r=Zone000)
  movel(p[0.48401, 0.01448, 0.008, -2.22144, 2.22144, 0], a=1, v=Speed000, r=Zone000)
  movel(p[0.48461, -0.01626, 0.008, -2.22144, 2.22144, 0], a=1, v=Speed000, r=Zone000)
  movel(p[0.48461, -0.01626, 0.003, -2.22144, 2.22144, 0], a=1, v=Speed000, r=Zone000)
  movel(p[0.48461, -0.01536, 0.003, -2.22144, 2.22144, 0], a=1, v=Speed000, r=Zone000)
  movel(p[0.48461, -0.01536, 0.008, -2.22144, 2.22144, 0], a=1, v=Speed000, r=Zone000)
  movel(p[0.48461, -0.00431, 0.008, -2.22144, 2.22144, 0], a=1, v=Speed000, r=Zone000)
  movel(p[0.48461, -0.00431, 0.003, -2.22144, 2.22144, 0], a=1, v=Speed000, r=Zone000)
  movel(p[0.48461, -0.00326, 0.003, -2.22144, 2.22144, 0], a=1, v=Speed000, r=Zone000)
  movel(p[0.48461, -0.00326, 0.008, -2.22144, 2.22144, 0], a=1, v=Speed000, r=Zone000)
  movel(p[0.48461, -0.00067, 0.008, -2.22144, 2.22144, 0], a=1, v=Speed000, r=Zone000)
  movel(p[0.48461, -0.00067, 0.003, -2.22144, 2.22144, 0], a=1, v=Speed000, r=Zone000)
  movel(p[0.48461, 0.00022, 0.003, -2.22144, 2.22144, 0], a=1, v=Speed000, r=Zone000)
  movel(p[0.48461, 0.00022, 0.008, -2.22144, 2.22144, 0], a=1, v=Speed000, r=Zone000)
  movel(p[0.48461, 0.00778, 0.008, -2.22144, 2.22144, 0], a=1, v=Speed000, r=Zone000)
  movel(p[0.48461, 0.00778, 0.003, -2.22144, 2.22144, 0], a=1, v=Speed000, r=Zone000)
  movel(p[0.48461, 0.00869, 0.003, -2.22144, 2.22144, 0], a=1, v=Speed000, r=Zone000)
  movel(p[0.48461, 0.00869, 0.008, -2.22144, 2.22144, 0], a=1, v=Speed000, r=Zone000)
  movel(p[0.48461, 0.01143, 0.008, -2.22144, 2.22144, 0], a=1, v=Speed000, r=Zone000)
  movel(p[0.48461, 0.01143, 0.003, -2.22144, 2.22144, 0], a=1, v=Speed000, r=Zone000)
  movel(p[0.48461, 0.01232, 0.003, -2.22144, 2.22144, 0], a=1, v=Speed000, r=Zone000)
  movel(p[0.48461, 0.01232, 0.008, -2.22144, 2.22144, 0], a=1, v=Speed000, r=Zone000)
  movel(p[0.48461, 0.01359, 0.008, -2.22144, 2.22144, 0], a=1, v=Speed000, r=Zone000)
  movel(p[0.48461, 0.01359, 0.003, -2.22144, 2.22144, 0], a=1, v=Speed000, r=Zone000)
  movel(p[0.48461, 0.01484, 0.003, -2.22144, 2.22144, 0], a=1, v=Speed000, r=Zone000)
  movel(p[0.48461, 0.01484, 0.008, -2.22144, 2.22144, 0], a=1, v=Speed000, r=Zone000)
  movel(p[0.48521, -0.01661, 0.008, -2.22144, 2.22144, 0], a=1, v=Speed000, r=Zone000)
  movel(p[0.48521, -0.01661, 0.003, -2.22144, 2.22144, 0], a=1, v=Speed000, r=Zone000)
  movel(p[0.48521, -0.01571, 0.003, -2.22144, 2.22144, 0], a=1, v=Speed000, r=Zone000)
  movel(p[0.48521, -0.01571, 0.008, -2.22144, 2.22144, 0], a=1, v=Speed000, r=Zone000)
  movel(p[0.48521, -0.00465, 0.008, -2.22144, 2.22144, 0], a=1, v=Speed000, r=Zone000)
  movel(p[0.48521, -0.00465, 0.003, -2.22144, 2.22144, 0], a=1, v=Speed000, r=Zone000)
  movel(p[0.48521, -0.00361, 0.003, -2.22144, 2.22144, 0], a=1, v=Speed000, r=Zone000)
  movel(p[0.48521, -0.00361, 0.008, -2.22144, 2.22144, 0], a=1, v=Speed000, r=Zone000)
  movel(p[0.48521, -0.00034, 0.008, -2.22144, 2.22144, 0], a=1, v=Speed000, r=Zone000)
  movel(p[0.48521, -0.00034, 0.003, -2.22144, 2.22144, 0], a=1, v=Speed000, r=Zone000)
  movel(p[0.48521, 0.00055, 0.003, -2.22144, 2.22144, 0], a=1, v=Speed000, r=Zone000)
  movel(p[0.48521, 0.00055, 0.008, -2.22144, 2.22144, 0], a=1, v=Speed000, r=Zone000)
  movel(p[0.48521, 0.00743, 0.008, -2.22144, 2.22144, 0], a=1, v=Speed000, r=Zone000)
  movel(p[0.48521, 0.00743, 0.003, -2.22144, 2.22144, 0], a=1, v=Speed000, r=Zone000)
  movel(p[0.48521, 0.00835, 0.003, -2.22144, 2.22144, 0], a=1, v=Speed000, r=Zone000)
  movel(p[0.48521, 0.00835, 0.008, -2.22144, 2.22144, 0], a=1, v=Speed000, r=Zone000)
  movel(p[0.48521, 0.01177, 0.008, -2.22144, 2.22144, 0], a=1, v=Speed000, r=Zone000)
  movel(p[0.48521, 0.01177, 0.003, -2.22144, 2.22144, 0], a=1, v=Speed000, r=Zone000)
  movel(p[0.48521, 0.01266, 0.003, -2.22144, 2.22144, 0], a=1, v=Speed000, r=Zone000)
  movel(p[0.48521, 0.01266, 0.008, -2.22144, 2.22144, 0], a=1, v=Speed000, r=Zone000)
  movel(p[0.48521, 0.01346, 0.008, -2.22144, 2.22144, 0], a=1, v=Speed000, r=Zone000)
  movel(p[0.48521, 0.01346, 0.003, -2.22144, 2.22144, 0], a=1, v=Speed000, r=Zone000)
  movel(p[0.48521, 0.01427, 0.003, -2.22144, 2.22144, 0], a=1, v=Speed000, r=Zone000)
  movel(p[0.48521, 0.01427, 0.008, -2.22144, 2.22144, 0], a=1, v=Speed000, r=Zone000)
  movel(p[0.48521, 0.01429, 0.008, -2.22144, 2.22144, 0], a=1, v=Speed000, r=Zone000)
  movel(p[0.48521, 0.01429, 0.003, -2.22144, 2.22144, 0], a=1, v=Speed000, r=Zone000)
  movel(p[0.48521, 0.01519, 0.003, -2.22144, 2.22144, 0], a=1, v=Speed000, r=Zone000)
  movel(p[0.48521, 0.01519, 0.008, -2.22144, 2.22144, 0], a=1, v=Speed000, r=Zone000)
  movel(p[0.48581, -0.01695, 0.008, -2.22144, 2.22144, 0], a=1, v=Speed000, r=Zone000)
  movel(p[0.48581, -0.01695, 0.003, -2.22144, 2.22144, 0], a=1, v=Speed000, r=Zone000)
  movel(p[0.48581, -0.01606, 0.003, -2.22144, 2.22144, 0], a=1, v=Speed000, r=Zone000)
  movel(p[0.48581, -0.01606, 0.008, -2.22144, 2.22144, 0], a=1, v=Speed000, r=Zone000)
  movel(p[0.48581, -0.00499, 0.008, -2.22144, 2.22144, 0], a=1, v=Speed000, r=Zone000)
  movel(p[0.48581, -0.00499, 0.003, -2.22144, 2.22144, 0], a=1, v=Speed000, r=Zone000)
  movel(p[0.48581, -0.00395, 0.003, -2.22144, 2.22144, 0], a=1, v=Speed000, r=Zone000)
  movel(p[0.48581, -0.00395, 0.008, -2.22144, 2.22144, 0], a=1, v=Speed000, r=Zone000)
  movel(p[0.48581, -0, 0.008, -2.22144, 2.22144, 0], a=1, v=Speed000, r=Zone000)
  movel(p[0.48581, -0, 0.003, -2.22144, 2.22144, 0], a=1, v=Speed000, r=Zone000)
  movel(p[0.48581, 0.00089, 0.003, -2.22144, 2.22144, 0], a=1, v=Speed000, r=Zone000)
  movel(p[0.48581, 0.00089, 0.008, -2.22144, 2.22144, 0], a=1, v=Speed000, r=Zone000)
  movel(p[0.48581, 0.00709, 0.008, -2.22144, 2.22144, 0], a=1, v=Speed000, r=Zone000)
  movel(p[0.48581, 0.00709, 0.003, -2.22144, 2.22144, 0], a=1, v=Speed000, r=Zone000)
  movel(p[0.48581, 0.008, 0.003, -2.22144, 2.22144, 0], a=1, v=Speed000, r=Zone000)
  movel(p[0.48581, 0.008, 0.008, -2.22144, 2.22144, 0], a=1, v=Speed000, r=Zone000)
  movel(p[0.48581, 0.0121, 0.008, -2.22144, 2.22144, 0], a=1, v=Speed000, r=Zone000)
  movel(p[0.48581, 0.0121, 0.003, -2.22144, 2.22144, 0], a=1, v=Speed000, r=Zone000)
  movel(p[0.48581, 0.01299, 0.003, -2.22144, 2.22144, 0], a=1, v=Speed000, r=Zone000)
  movel(p[0.48581, 0.01299, 0.008, -2.22144, 2.22144, 0], a=1, v=Speed000, r=Zone000)
  movel(p[0.48581, 0.0132, 0.008, -2.22144, 2.22144, 0], a=1, v=Speed000, r=Zone000)
  movel(p[0.48581, 0.0132, 0.003, -2.22144, 2.22144, 0], a=1, v=Speed000, r=Zone000)
  movel(p[0.48581, 0.01406, 0.003, -2.22144, 2.22144, 0], a=1, v=Speed000, r=Zone000)
  movel(p[0.48581, 0.01406, 0.008, -2.22144, 2.22144, 0], a=1, v=Speed000, r=Zone000)
  movel(p[0.48581, 0.01464, 0.008, -2.22144, 2.22144, 0], a=1, v=Speed000, r=Zone000)
  movel(p[0.48581, 0.01464, 0.003, -2.22144, 2.22144, 0], a=1, v=Speed000, r=Zone000)
  movel(p[0.48581, 0.01554, 0.003, -2.22144, 2.22144, 0], a=1, v=Speed000, r=Zone000)
  movel(p[0.48581, 0.01554, 0.008, -2.22144, 2.22144, 0], a=1, v=Speed000, r=Zone000)
  movel(p[0.48641, -0.0173, 0.008, -2.22144, 2.22144, 0], a=1, v=Speed000, r=Zone000)
  movel(p[0.48641, -0.0173, 0.003, -2.22144, 2.22144, 0], a=1, v=Speed000, r=Zone000)
  movel(p[0.48641, -0.0164, 0.003, -2.22144, 2.22144, 0], a=1, v=Speed000, r=Zone000)
  movel(p[0.48641, -0.0164, 0.008, -2.22144, 2.22144, 0], a=1, v=Speed000, r=Zone000)
  movel(p[0.48641, -0.00534, 0.008, -2.22144, 2.22144, 0], a=1, v=Speed000, r=Zone000)
  movel(p[0.48641, -0.00534, 0.003, -2.22144, 2.22144, 0], a=1, v=Speed000, r=Zone000)
  movel(p[0.48641, -0.0043, 0.003, -2.22144, 2.22144, 0], a=1, v=Speed000, r=Zone000)
  movel(p[0.48641, -0.0043, 0.008, -2.22144, 2.22144, 0], a=1, v=Speed000, r=Zone000)
  movel(p[0.48641, 0.00033, 0.008, -2.22144, 2.22144, 0], a=1, v=Speed000, r=Zone000)
  movel(p[0.48641, 0.00033, 0.003, -2.22144, 2.22144, 0], a=1, v=Speed000, r=Zone000)
  movel(p[0.48641, 0.00122, 0.003, -2.22144, 2.22144, 0], a=1, v=Speed000, r=Zone000)
  movel(p[0.48641, 0.00122, 0.008, -2.22144, 2.22144, 0], a=1, v=Speed000, r=Zone000)
  movel(p[0.48641, 0.00674, 0.008, -2.22144, 2.22144, 0], a=1, v=Speed000, r=Zone000)
  movel(p[0.48641, 0.00674, 0.003, -2.22144, 2.22144, 0], a=1, v=Speed000, r=Zone000)
  movel(p[0.48641, 0.00766, 0.003, -2.22144, 2.22144, 0], a=1, v=Speed000, r=Zone000)
  movel(p[0.48641, 0.00766, 0.008, -2.22144, 2.22144, 0], a=1, v=Speed000, r=Zone000)
  movel(p[0.48641, 0.01244, 0.008, -2.22144, 2.22144, 0], a=1, v=Speed000, r=Zone000)
  movel(p[0.48641, 0.01244, 0.003, -2.22144, 2.22144, 0], a=1, v=Speed000, r=Zone000)
  movel(p[0.48641, 0.01376, 0.003, -2.22144, 2.22144, 0], a=1, v=Speed000, r=Zone000)
  movel(p[0.48641, 0.01376, 0.008, -2.22144, 2.22144, 0], a=1, v=Speed000, r=Zone000)
  movel(p[0.48641, 0.015, 0.008, -2.22144, 2.22144, 0], a=1, v=Speed000, r=Zone000)
  movel(p[0.48641, 0.015, 0.003, -2.22144, 2.22144, 0], a=1, v=Speed000, r=Zone000)
  movel(p[0.48641, 0.0159, 0.003, -2.22144, 2.22144, 0], a=1, v=Speed000, r=Zone000)
  movel(p[0.48641, 0.0159, 0.008, -2.22144, 2.22144, 0], a=1, v=Speed000, r=Zone000)
  movel(p[0.48701, -0.01764, 0.008, -2.22144, 2.22144, 0], a=1, v=Speed000, r=Zone000)
  movel(p[0.48701, -0.01764, 0.003, -2.22144, 2.22144, 0], a=1, v=Speed000, r=Zone000)
  movel(p[0.48701, -0.01675, 0.003, -2.22144, 2.22144, 0], a=1, v=Speed000, r=Zone000)
  movel(p[0.48701, -0.01675, 0.008, -2.22144, 2.22144, 0], a=1, v=Speed000, r=Zone000)
  movel(p[0.48701, -0.00568, 0.008, -2.22144, 2.22144, 0], a=1, v=Speed000, r=Zone000)
  movel(p[0.48701, -0.00568, 0.003, -2.22144, 2.22144, 0], a=1, v=Speed000, r=Zone000)
  movel(p[0.48701, -0.00464, 0.003, -2.22144, 2.22144, 0], a=1, v=Speed000, r=Zone000)
  movel(p[0.48701, -0.00464, 0.008, -2.22144, 2.22144, 0], a=1, v=Speed000, r=Zone000)
  movel(p[0.48701, 0.00067, 0.008, -2.22144, 2.22144, 0], a=1, v=Speed000, r=Zone000)
  movel(p[0.48701, 0.00067, 0.003, -2.22144, 2.22144, 0], a=1, v=Speed000, r=Zone000)
  movel(p[0.48701, 0.00156, 0.003, -2.22144, 2.22144, 0], a=1, v=Speed000, r=Zone000)
  movel(p[0.48701, 0.00156, 0.008, -2.22144, 2.22144, 0], a=1, v=Speed000, r=Zone000)
  movel(p[0.48701, 0.00639, 0.008, -2.22144, 2.22144, 0], a=1, v=Speed000, r=Zone000)
  movel(p[0.48701, 0.00639, 0.003, -2.22144, 2.22144, 0], a=1, v=Speed000, r=Zone000)
  movel(p[0.48701, 0.00732, 0.003, -2.22144, 2.22144, 0], a=1, v=Speed000, r=Zone000)
  movel(p[0.48701, 0.00732, 0.008, -2.22144, 2.22144, 0], a=1, v=Speed000, r=Zone000)
  movel(p[0.48701, 0.01239, 0.008, -2.22144, 2.22144, 0], a=1, v=Speed000, r=Zone000)
  movel(p[0.48701, 0.01239, 0.003, -2.22144, 2.22144, 0], a=1, v=Speed000, r=Zone000)
  movel(p[0.48701, 0.01366, 0.003, -2.22144, 2.22144, 0], a=1, v=Speed000, r=Zone000)
  movel(p[0.48701, 0.01366, 0.008, -2.22144, 2.22144, 0], a=1, v=Speed000, r=Zone000)
  movel(p[0.48701, 0.01535, 0.008, -2.22144, 2.22144, 0], a=1, v=Speed000, r=Zone000)
  movel(p[0.48701, 0.01535, 0.003, -2.22144, 2.22144, 0], a=1, v=Speed000, r=Zone000)
  movel(p[0.48701, 0.01625, 0.003, -2.22144, 2.22144, 0], a=1, v=Speed000, r=Zone000)
  movel(p[0.48701, 0.01625, 0.008, -2.22144, 2.22144, 0], a=1, v=Speed000, r=Zone000)
  movel(p[0.48761, -0.01799, 0.008, -2.22144, 2.22144, 0], a=1, v=Speed000, r=Zone000)
  movel(p[0.48761, -0.01799, 0.003, -2.22144, 2.22144, 0], a=1, v=Speed000, r=Zone000)
  movel(p[0.48761, -0.01709, 0.003, -2.22144, 2.22144, 0], a=1, v=Speed000, r=Zone000)
  movel(p[0.48761, -0.01709, 0.008, -2.22144, 2.22144, 0], a=1, v=Speed000, r=Zone000)
  movel(p[0.48761, -0.00603, 0.008, -2.22144, 2.22144, 0], a=1, v=Speed000, r=Zone000)
  movel(p[0.48761, -0.00603, 0.003, -2.22144, 2.22144, 0], a=1, v=Speed000, r=Zone000)
  movel(p[0.48761, -0.00499, 0.003, -2.22144, 2.22144, 0], a=1, v=Speed000, r=Zone000)
  movel(p[0.48761, -0.00499, 0.008, -2.22144, 2.22144, 0], a=1, v=Speed000, r=Zone000)
  movel(p[0.48761, 0.00101, 0.008, -2.22144, 2.22144, 0], a=1, v=Speed000, r=Zone000)
  movel(p[0.48761, 0.00101, 0.003, -2.22144, 2.22144, 0], a=1, v=Speed000, r=Zone000)
  movel(p[0.48761, 0.00189, 0.003, -2.22144, 2.22144, 0], a=1, v=Speed000, r=Zone000)
  movel(p[0.48761, 0.00189, 0.008, -2.22144, 2.22144, 0], a=1, v=Speed000, r=Zone000)
  movel(p[0.48761, 0.00605, 0.008, -2.22144, 2.22144, 0], a=1, v=Speed000, r=Zone000)
  movel(p[0.48761, 0.00605, 0.003, -2.22144, 2.22144, 0], a=1, v=Speed000, r=Zone000)
  movel(p[0.48761, 0.00697, 0.003, -2.22144, 2.22144, 0], a=1, v=Speed000, r=Zone000)
  movel(p[0.48761, 0.00697, 0.008, -2.22144, 2.22144, 0], a=1, v=Speed000, r=Zone000)
  movel(p[0.48761, 0.01182, 0.008, -2.22144, 2.22144, 0], a=1, v=Speed000, r=Zone000)
  movel(p[0.48761, 0.01182, 0.003, -2.22144, 2.22144, 0], a=1, v=Speed000, r=Zone000)
  movel(p[0.48761, 0.01291, 0.003, -2.22144, 2.22144, 0], a=1, v=Speed000, r=Zone000)
  movel(p[0.48761, 0.01291, 0.008, -2.22144, 2.22144, 0], a=1, v=Speed000, r=Zone000)
  movel(p[0.48761, 0.01311, 0.008, -2.22144, 2.22144, 0], a=1, v=Speed000, r=Zone000)
  movel(p[0.48761, 0.01311, 0.003, -2.22144, 2.22144, 0], a=1, v=Speed000, r=Zone000)
  movel(p[0.48761, 0.014, 0.003, -2.22144, 2.22144, 0], a=1, v=Speed000, r=Zone000)
  movel(p[0.48761, 0.014, 0.008, -2.22144, 2.22144, 0], a=1, v=Speed000, r=Zone000)
  movel(p[0.48761, 0.0157, 0.008, -2.22144, 2.22144, 0], a=1, v=Speed000, r=Zone000)
  movel(p[0.48761, 0.0157, 0.003, -2.22144, 2.22144, 0], a=1, v=Speed000, r=Zone000)
  movel(p[0.48761, 0.0166, 0.003, -2.22144, 2.22144, 0], a=1, v=Speed000, r=Zone000)
  movel(p[0.48761, 0.0166, 0.008, -2.22144, 2.22144, 0], a=1, v=Speed000, r=Zone000)
  movel(p[0.48821, -0.01833, 0.008, -2.22144, 2.22144, 0], a=1, v=Speed000, r=Zone000)
  movel(p[0.48821, -0.01833, 0.003, -2.22144, 2.22144, 0], a=1, v=Speed000, r=Zone000)
  movel(p[0.48821, -0.01744, 0.003, -2.22144, 2.22144, 0], a=1, v=Speed000, r=Zone000)
  movel(p[0.48821, -0.01744, 0.008, -2.22144, 2.22144, 0], a=1, v=Speed000, r=Zone000)
  movel(p[0.48821, -0.00637, 0.008, -2.22144, 2.22144, 0], a=1, v=Speed000, r=Zone000)
  movel(p[0.48821, -0.00637, 0.003, -2.22144, 2.22144, 0], a=1, v=Speed000, r=Zone000)
  movel(p[0.48821, -0.00533, 0.003, -2.22144, 2.22144, 0], a=1, v=Speed000, r=Zone000)
  movel(p[0.48821, -0.00533, 0.008, -2.22144, 2.22144, 0], a=1, v=Speed000, r=Zone000)
  movel(p[0.48821, 0.00134, 0.008, -2.22144, 2.22144, 0], a=1, v=Speed000, r=Zone000)
  movel(p[0.48821, 0.00134, 0.003, -2.22144, 2.22144, 0], a=1, v=Speed000, r=Zone000)
  movel(p[0.48821, 0.00223, 0.003, -2.22144, 2.22144, 0], a=1, v=Speed000, r=Zone000)
  movel(p[0.48821, 0.00223, 0.008, -2.22144, 2.22144, 0], a=1, v=Speed000, r=Zone000)
  movel(p[0.48821, 0.0057, 0.008, -2.22144, 2.22144, 0], a=1, v=Speed000, r=Zone000)
  movel(p[0.48821, 0.0057, 0.003, -2.22144, 2.22144, 0], a=1, v=Speed000, r=Zone000)
  movel(p[0.48821, 0.00663, 0.003, -2.22144, 2.22144, 0], a=1, v=Speed000, r=Zone000)
  movel(p[0.48821, 0.00663, 0.008, -2.22144, 2.22144, 0], a=1, v=Speed000, r=Zone000)
  movel(p[0.48821, 0.01108, 0.008, -2.22144, 2.22144, 0], a=1, v=Speed000, r=Zone000)
  movel(p[0.48821, 0.01108, 0.003, -2.22144, 2.22144, 0], a=1, v=Speed000, r=Zone000)
  movel(p[0.48821, 0.01232, 0.003, -2.22144, 2.22144, 0], a=1, v=Speed000, r=Zone000)
  movel(p[0.48821, 0.01232, 0.008, -2.22144, 2.22144, 0], a=1, v=Speed000, r=Zone000)
  movel(p[0.48821, 0.01345, 0.008, -2.22144, 2.22144, 0], a=1, v=Speed000, r=Zone000)
  movel(p[0.48821, 0.01345, 0.003, -2.22144, 2.22144, 0], a=1, v=Speed000, r=Zone000)
  movel(p[0.48821, 0.01434, 0.003, -2.22144, 2.22144, 0], a=1, v=Speed000, r=Zone000)
  movel(p[0.48821, 0.01434, 0.008, -2.22144, 2.22144, 0], a=1, v=Speed000, r=Zone000)
  movel(p[0.48821, 0.01606, 0.008, -2.22144, 2.22144, 0], a=1, v=Speed000, r=Zone000)
  movel(p[0.48821, 0.01606, 0.003, -2.22144, 2.22144, 0], a=1, v=Speed000, r=Zone000)
  movel(p[0.48821, 0.01696, 0.003, -2.22144, 2.22144, 0], a=1, v=Speed000, r=Zone000)
  movel(p[0.48821, 0.01696, 0.008, -2.22144, 2.22144, 0], a=1, v=Speed000, r=Zone000)
  movel(p[0.48881, -0.01868, 0.008, -2.22144, 2.22144, 0], a=1, v=Speed000, r=Zone000)
  movel(p[0.48881, -0.01868, 0.003, -2.22144, 2.22144, 0], a=1, v=Speed000, r=Zone000)
  movel(p[0.48881, -0.01778, 0.003, -2.22144, 2.22144, 0], a=1, v=Speed000, r=Zone000)
  movel(p[0.48881, -0.01778, 0.008, -2.22144, 2.22144, 0], a=1, v=Speed000, r=Zone000)
  movel(p[0.48881, -0.00671, 0.008, -2.22144, 2.22144, 0], a=1, v=Speed000, r=Zone000)
  movel(p[0.48881, -0.00671, 0.003, -2.22144, 2.22144, 0], a=1, v=Speed000, r=Zone000)
  movel(p[0.48881, -0.00568, 0.003, -2.22144, 2.22144, 0], a=1, v=Speed000, r=Zone000)
  movel(p[0.48881, -0.00568, 0.008, -2.22144, 2.22144, 0], a=1, v=Speed000, r=Zone000)
  movel(p[0.48881, 0.00168, 0.008, -2.22144, 2.22144, 0], a=1, v=Speed000, r=Zone000)
  movel(p[0.48881, 0.00168, 0.003, -2.22144, 2.22144, 0], a=1, v=Speed000, r=Zone000)
  movel(p[0.48881, 0.00256, 0.003, -2.22144, 2.22144, 0], a=1, v=Speed000, r=Zone000)
  movel(p[0.48881, 0.00256, 0.008, -2.22144, 2.22144, 0], a=1, v=Speed000, r=Zone000)
  movel(p[0.48881, 0.00536, 0.008, -2.22144, 2.22144, 0], a=1, v=Speed000, r=Zone000)
  movel(p[0.48881, 0.00536, 0.003, -2.22144, 2.22144, 0], a=1, v=Speed000, r=Zone000)
  movel(p[0.48881, 0.00629, 0.003, -2.22144, 2.22144, 0], a=1, v=Speed000, r=Zone000)
  movel(p[0.48881, 0.00629, 0.008, -2.22144, 2.22144, 0], a=1, v=Speed000, r=Zone000)
  movel(p[0.48881, 0.01013, 0.008, -2.22144, 2.22144, 0], a=1, v=Speed000, r=Zone000)
  movel(p[0.48881, 0.01013, 0.003, -2.22144, 2.22144, 0], a=1, v=Speed000, r=Zone000)
  movel(p[0.48881, 0.0116, 0.003, -2.22144, 2.22144, 0], a=1, v=Speed000, r=Zone000)
  movel(p[0.48881, 0.0116, 0.008, -2.22144, 2.22144, 0], a=1, v=Speed000, r=Zone000)
  movel(p[0.48881, 0.01378, 0.008, -2.22144, 2.22144, 0], a=1, v=Speed000, r=Zone000)
  movel(p[0.48881, 0.01378, 0.003, -2.22144, 2.22144, 0], a=1, v=Speed000, r=Zone000)
  movel(p[0.48881, 0.01467, 0.003, -2.22144, 2.22144, 0], a=1, v=Speed000, r=Zone000)
  movel(p[0.48881, 0.01467, 0.008, -2.22144, 2.22144, 0], a=1, v=Speed000, r=Zone000)
  movel(p[0.48881, 0.01641, 0.008, -2.22144, 2.22144, 0], a=1, v=Speed000, r=Zone000)
  movel(p[0.48881, 0.01641, 0.003, -2.22144, 2.22144, 0], a=1, v=Speed000, r=Zone000)
  movel(p[0.48881, 0.01731, 0.003, -2.22144, 2.22144, 0], a=1, v=Speed000, r=Zone000)
  movel(p[0.48881, 0.01731, 0.008, -2.22144, 2.22144, 0], a=1, v=Speed000, r=Zone000)
  movel(p[0.48941, -0.01902, 0.008, -2.22144, 2.22144, 0], a=1, v=Speed000, r=Zone000)
  movel(p[0.48941, -0.01902, 0.003, -2.22144, 2.22144, 0], a=1, v=Speed000, r=Zone000)
  movel(p[0.48941, -0.01813, 0.003, -2.22144, 2.22144, 0], a=1, v=Speed000, r=Zone000)
  movel(p[0.48941, -0.01813, 0.008, -2.22144, 2.22144, 0], a=1, v=Speed000, r=Zone000)
  movel(p[0.48941, -0.00706, 0.008, -2.22144, 2.22144, 0], a=1, v=Speed000, r=Zone000)
  movel(p[0.48941, -0.00706, 0.003, -2.22144, 2.22144, 0], a=1, v=Speed000, r=Zone000)
  movel(p[0.48941, -0.00603, 0.003, -2.22144, 2.22144, 0], a=1, v=Speed000, r=Zone000)
  movel(p[0.48941, -0.00603, 0.008, -2.22144, 2.22144, 0], a=1, v=Speed000, r=Zone000)
  movel(p[0.48941, 0.00201, 0.008, -2.22144, 2.22144, 0], a=1, v=Speed000, r=Zone000)
  movel(p[0.48941, 0.00201, 0.003, -2.22144, 2.22144, 0], a=1, v=Speed000, r=Zone000)
  movel(p[0.48941, 0.0029, 0.003, -2.22144, 2.22144, 0], a=1, v=Speed000, r=Zone000)
  movel(p[0.48941, 0.0029, 0.008, -2.22144, 2.22144, 0], a=1, v=Speed000, r=Zone000)
  movel(p[0.48941, 0.00501, 0.008, -2.22144, 2.22144, 0], a=1, v=Speed000, r=Zone000)
  movel(p[0.48941, 0.00501, 0.003, -2.22144, 2.22144, 0], a=1, v=Speed000, r=Zone000)
  movel(p[0.48941, 0.00594, 0.003, -2.22144, 2.22144, 0], a=1, v=Speed000, r=Zone000)
  movel(p[0.48941, 0.00594, 0.008, -2.22144, 2.22144, 0], a=1, v=Speed000, r=Zone000)
  movel(p[0.48941, 0.00883, 0.008, -2.22144, 2.22144, 0], a=1, v=Speed000, r=Zone000)
  movel(p[0.48941, 0.00883, 0.003, -2.22144, 2.22144, 0], a=1, v=Speed000, r=Zone000)
  movel(p[0.48941, 0.01143, 0.003, -2.22144, 2.22144, 0], a=1, v=Speed000, r=Zone000)
  movel(p[0.48941, 0.01143, 0.008, -2.22144, 2.22144, 0], a=1, v=Speed000, r=Zone000)
  movel(p[0.48941, 0.01412, 0.008, -2.22144, 2.22144, 0], a=1, v=Speed000, r=Zone000)
  movel(p[0.48941, 0.01412, 0.003, -2.22144, 2.22144, 0], a=1, v=Speed000, r=Zone000)
  movel(p[0.48941, 0.01501, 0.003, -2.22144, 2.22144, 0], a=1, v=Speed000, r=Zone000)
  movel(p[0.48941, 0.01501, 0.008, -2.22144, 2.22144, 0], a=1, v=Speed000, r=Zone000)
  movel(p[0.48941, 0.01677, 0.008, -2.22144, 2.22144, 0], a=1, v=Speed000, r=Zone000)
  movel(p[0.48941, 0.01677, 0.003, -2.22144, 2.22144, 0], a=1, v=Speed000, r=Zone000)
  movel(p[0.48941, 0.01767, 0.003, -2.22144, 2.22144, 0], a=1, v=Speed000, r=Zone000)
  movel(p[0.48941, 0.01767, 0.008, -2.22144, 2.22144, 0], a=1, v=Speed000, r=Zone000)
  movel(p[0.49001, -0.01937, 0.008, -2.22144, 2.22144, 0], a=1, v=Speed000, r=Zone000)
  movel(p[0.49001, -0.01937, 0.003, -2.22144, 2.22144, 0], a=1, v=Speed000, r=Zone000)
  movel(p[0.49001, -0.01847, 0.003, -2.22144, 2.22144, 0], a=1, v=Speed000, r=Zone000)
  movel(p[0.49001, -0.01847, 0.008, -2.22144, 2.22144, 0], a=1, v=Speed000, r=Zone000)
  movel(p[0.49001, -0.0074, 0.008, -2.22144, 2.22144, 0], a=1, v=Speed000, r=Zone000)
  movel(p[0.49001, -0.0074, 0.003, -2.22144, 2.22144, 0], a=1, v=Speed000, r=Zone000)
  movel(p[0.49001, -0.00637, 0.003, -2.22144, 2.22144, 0], a=1, v=Speed000, r=Zone000)
  movel(p[0.49001, -0.00637, 0.008, -2.22144, 2.22144, 0], a=1, v=Speed000, r=Zone000)
  movel(p[0.49001, 0.00235, 0.008, -2.22144, 2.22144, 0], a=1, v=Speed000, r=Zone000)
  movel(p[0.49001, 0.00235, 0.003, -2.22144, 2.22144, 0], a=1, v=Speed000, r=Zone000)
  movel(p[0.49001, 0.00324, 0.003, -2.22144, 2.22144, 0], a=1, v=Speed000, r=Zone000)
  movel(p[0.49001, 0.00324, 0.008, -2.22144, 2.22144, 0], a=1, v=Speed000, r=Zone000)
  movel(p[0.49001, 0.00466, 0.008, -2.22144, 2.22144, 0], a=1, v=Speed000, r=Zone000)
  movel(p[0.49001, 0.00466, 0.003, -2.22144, 2.22144, 0], a=1, v=Speed000, r=Zone000)
  movel(p[0.49001, 0.0056, 0.003, -2.22144, 2.22144, 0], a=1, v=Speed000, r=Zone000)
  movel(p[0.49001, 0.0056, 0.008, -2.22144, 2.22144, 0], a=1, v=Speed000, r=Zone000)
  movel(p[0.49001, 0.00683, 0.008, -2.22144, 2.22144, 0], a=1, v=Speed000, r=Zone000)
  movel(p[0.49001, 0.00683, 0.003, -2.22144, 2.22144, 0], a=1, v=Speed000, r=Zone000)
  movel(p[0.49001, 0.00945, 0.003, -2.22144, 2.22144, 0], a=1, v=Speed000, r=Zone000)
  movel(p[0.49001, 0.00945, 0.008, -2.22144, 2.22144, 0], a=1, v=Speed000, r=Zone000)
  movel(p[0.49001, 0.01088, 0.008, -2.22144, 2.22144, 0], a=1, v=Speed000, r=Zone000)
  movel(p[0.49001, 0.01088, 0.003, -2.22144, 2.22144, 0], a=1, v=Speed000, r=Zone000)
  movel(p[0.49001, 0.01178, 0.003, -2.22144, 2.22144, 0], a=1, v=Speed000, r=Zone000)
  movel(p[0.49001, 0.01178, 0.008, -2.22144, 2.22144, 0], a=1, v=Speed000, r=Zone000)
  movel(p[0.49001, 0.01445, 0.008, -2.22144, 2.22144, 0], a=1, v=Speed000, r=Zone000)
  movel(p[0.49001, 0.01445, 0.003, -2.22144, 2.22144, 0], a=1, v=Speed000, r=Zone000)
  movel(p[0.49001, 0.01534, 0.003, -2.22144, 2.22144, 0], a=1, v=Speed000, r=Zone000)
  movel(p[0.49001, 0.01534, 0.008, -2.22144, 2.22144, 0], a=1, v=Speed000, r=Zone000)
  movel(p[0.49001, 0.01712, 0.008, -2.22144, 2.22144, 0], a=1, v=Speed000, r=Zone000)
  movel(p[0.49001, 0.01712, 0.003, -2.22144, 2.22144, 0], a=1, v=Speed000, r=Zone000)
  movel(p[0.49001, 0.01802, 0.003, -2.22144, 2.22144, 0], a=1, v=Speed000, r=Zone000)
  movel(p[0.49001, 0.01802, 0.008, -2.22144, 2.22144, 0], a=1, v=Speed000, r=Zone000)
  movel(p[0.49061, -0.01974, 0.008, -2.22144, 2.22144, 0], a=1, v=Speed000, r=Zone000)
  movel(p[0.49061, -0.01974, 0.003, -2.22144, 2.22144, 0], a=1, v=Speed000, r=Zone000)
  movel(p[0.49061, 0.00769, 0.003, -2.22144, 2.22144, 0], a=1, v=Speed000, r=Zone000)
  movel(p[0.49061, 0.00769, 0.008, -2.22144, 2.22144, 0], a=1, v=Speed000, r=Zone000)
  movel(p[0.49061, 0.01124, 0.008, -2.22144, 2.22144, 0], a=1, v=Speed000, r=Zone000)
  movel(p[0.49061, 0.01124, 0.003, -2.22144, 2.22144, 0], a=1, v=Speed000, r=Zone000)
  movel(p[0.49061, 0.01214, 0.003, -2.22144, 2.22144, 0], a=1, v=Speed000, r=Zone000)
  movel(p[0.49061, 0.01214, 0.008, -2.22144, 2.22144, 0], a=1, v=Speed000, r=Zone000)
  movel(p[0.49061, 0.01479, 0.008, -2.22144, 2.22144, 0], a=1, v=Speed000, r=Zone000)
  movel(p[0.49061, 0.01479, 0.003, -2.22144, 2.22144, 0], a=1, v=Speed000, r=Zone000)
  movel(p[0.49061, 0.01678, 0.003, -2.22144, 2.22144, 0], a=1, v=Speed000, r=Zone000)
  movel(p[0.49061, 0.01678, 0.008, -2.22144, 2.22144, 0], a=1, v=Speed000, r=Zone000)
  movel(p[0.49061, 0.01747, 0.008, -2.22144, 2.22144, 0], a=1, v=Speed000, r=Zone000)
  movel(p[0.49061, 0.01747, 0.003, -2.22144, 2.22144, 0], a=1, v=Speed000, r=Zone000)
  movel(p[0.49061, 0.01837, 0.003, -2.22144, 2.22144, 0], a=1, v=Speed000, r=Zone000)
  movel(p[0.49061, 0.01837, 0.008, -2.22144, 2.22144, 0], a=1, v=Speed000, r=Zone000)
  movel(p[0.49121, -0.01953, 0.008, -2.22144, 2.22144, 0], a=1, v=Speed000, r=Zone000)
  movel(p[0.49121, -0.01953, 0.003, -2.22144, 2.22144, 0], a=1, v=Speed000, r=Zone000)
  movel(p[0.49121, -0.01863, 0.003, -2.22144, 2.22144, 0], a=1, v=Speed000, r=Zone000)
  movel(p[0.49121, -0.01863, 0.008, -2.22144, 2.22144, 0], a=1, v=Speed000, r=Zone000)
  movel(p[0.49121, -0.00756, 0.008, -2.22144, 2.22144, 0], a=1, v=Speed000, r=Zone000)
  movel(p[0.49121, -0.00756, 0.003, -2.22144, 2.22144, 0], a=1, v=Speed000, r=Zone000)
  movel(p[0.49121, -0.00653, 0.003, -2.22144, 2.22144, 0], a=1, v=Speed000, r=Zone000)
  movel(p[0.49121, -0.00653, 0.008, -2.22144, 2.22144, 0], a=1, v=Speed000, r=Zone000)
  movel(p[0.49121, 0.00252, 0.008, -2.22144, 2.22144, 0], a=1, v=Speed000, r=Zone000)
  movel(p[0.49121, 0.00252, 0.003, -2.22144, 2.22144, 0], a=1, v=Speed000, r=Zone000)
  movel(p[0.49121, 0.00341, 0.003, -2.22144, 2.22144, 0], a=1, v=Speed000, r=Zone000)
  movel(p[0.49121, 0.00341, 0.008, -2.22144, 2.22144, 0], a=1, v=Speed000, r=Zone000)
  movel(p[0.49121, 0.00455, 0.008, -2.22144, 2.22144, 0], a=1, v=Speed000, r=Zone000)
  movel(p[0.49121, 0.00455, 0.003, -2.22144, 2.22144, 0], a=1, v=Speed000, r=Zone000)
  movel(p[0.49121, 0.00549, 0.003, -2.22144, 2.22144, 0], a=1, v=Speed000, r=Zone000)
  movel(p[0.49121, 0.00549, 0.008, -2.22144, 2.22144, 0], a=1, v=Speed000, r=Zone000)
  movel(p[0.49121, 0.01159, 0.008, -2.22144, 2.22144, 0], a=1, v=Speed000, r=Zone000)
  movel(p[0.49121, 0.01159, 0.003, -2.22144, 2.22144, 0], a=1, v=Speed000, r=Zone000)
  movel(p[0.49121, 0.01249, 0.003, -2.22144, 2.22144, 0], a=1, v=Speed000, r=Zone000)
  movel(p[0.49121, 0.01249, 0.008, -2.22144, 2.22144, 0], a=1, v=Speed000, r=Zone000)
  movel(p[0.49121, 0.01462, 0.008, -2.22144, 2.22144, 0], a=1, v=Speed000, r=Zone000)
  movel(p[0.49121, 0.01462, 0.003, -2.22144, 2.22144, 0], a=1, v=Speed000, r=Zone000)
  movel(p[0.49121, 0.01561, 0.003, -2.22144, 2.22144, 0], a=1, v=Speed000, r=Zone000)
  movel(p[0.49121, 0.01561, 0.008, -2.22144, 2.22144, 0], a=1, v=Speed000, r=Zone000)
  movel(p[0.49121, 0.01602, 0.008, -2.22144, 2.22144, 0], a=1, v=Speed000, r=Zone000)
  movel(p[0.49121, 0.01602, 0.003, -2.22144, 2.22144, 0], a=1, v=Speed000, r=Zone000)
  movel(p[0.49121, 0.01873, 0.003, -2.22144, 2.22144, 0], a=1, v=Speed000, r=Zone000)
  movel(p[0.49121, 0.01873, 0.008, -2.22144, 2.22144, 0], a=1, v=Speed000, r=Zone000)
  movel(p[0.49181, -0.01918, 0.008, -2.22144, 2.22144, 0], a=1, v=Speed000, r=Zone000)
  movel(p[0.49181, -0.01918, 0.003, -2.22144, 2.22144, 0], a=1, v=Speed000, r=Zone000)
  movel(p[0.49181, -0.01829, 0.003, -2.22144, 2.22144, 0], a=1, v=Speed000, r=Zone000)
  movel(p[0.49181, -0.01829, 0.008, -2.22144, 2.22144, 0], a=1, v=Speed000, r=Zone000)
  movel(p[0.49181, -0.00721, 0.008, -2.22144, 2.22144, 0], a=1, v=Speed000, r=Zone000)
  movel(p[0.49181, -0.00721, 0.003, -2.22144, 2.22144, 0], a=1, v=Speed000, r=Zone000)
  movel(p[0.49181, -0.00618, 0.003, -2.22144, 2.22144, 0], a=1, v=Speed000, r=Zone000)
  movel(p[0.49181, -0.00618, 0.008, -2.22144, 2.22144, 0], a=1, v=Speed000, r=Zone000)
  movel(p[0.49181, 0.00218, 0.008, -2.22144, 2.22144, 0], a=1, v=Speed000, r=Zone000)
  movel(p[0.49181, 0.00218, 0.003, -2.22144, 2.22144, 0], a=1, v=Speed000, r=Zone000)
  movel(p[0.49181, 0.00307, 0.003, -2.22144, 2.22144, 0], a=1, v=Speed000, r=Zone000)
  movel(p[0.49181, 0.00307, 0.008, -2.22144, 2.22144, 0], a=1, v=Speed000, r=Zone000)
  movel(p[0.49181, 0.00489, 0.008, -2.22144, 2.22144, 0], a=1, v=Speed000, r=Zone000)
  movel(p[0.49181, 0.00489, 0.003, -2.22144, 2.22144, 0], a=1, v=Speed000, r=Zone000)
  movel(p[0.49181, 0.00584, 0.003, -2.22144, 2.22144, 0], a=1, v=Speed000, r=Zone000)
  movel(p[0.49181, 0.00584, 0.008, -2.22144, 2.22144, 0], a=1, v=Speed000, r=Zone000)
  movel(p[0.49181, 0.01195, 0.008, -2.22144, 2.22144, 0], a=1, v=Speed000, r=Zone000)
  movel(p[0.49181, 0.01195, 0.003, -2.22144, 2.22144, 0], a=1, v=Speed000, r=Zone000)
  movel(p[0.49181, 0.01285, 0.003, -2.22144, 2.22144, 0], a=1, v=Speed000, r=Zone000)
  movel(p[0.49181, 0.01285, 0.008, -2.22144, 2.22144, 0], a=1, v=Speed000, r=Zone000)
  movel(p[0.49181, 0.01429, 0.008, -2.22144, 2.22144, 0], a=1, v=Speed000, r=Zone000)
  movel(p[0.49181, 0.01429, 0.003, -2.22144, 2.22144, 0], a=1, v=Speed000, r=Zone000)
  movel(p[0.49181, 0.01527, 0.003, -2.22144, 2.22144, 0], a=1, v=Speed000, r=Zone000)
  movel(p[0.49181, 0.01527, 0.008, -2.22144, 2.22144, 0], a=1, v=Speed000, r=Zone000)
  movel(p[0.49181, 0.01765, 0.008, -2.22144, 2.22144, 0], a=1, v=Speed000, r=Zone000)
  movel(p[0.49181, 0.01765, 0.003, -2.22144, 2.22144, 0], a=1, v=Speed000, r=Zone000)
  movel(p[0.49181, 0.01908, 0.003, -2.22144, 2.22144, 0], a=1, v=Speed000, r=Zone000)
  movel(p[0.49181, 0.01908, 0.008, -2.22144, 2.22144, 0], a=1, v=Speed000, r=Zone000)
  movel(p[0.49241, -0.01884, 0.008, -2.22144, 2.22144, 0], a=1, v=Speed000, r=Zone000)
  movel(p[0.49241, -0.01884, 0.003, -2.22144, 2.22144, 0], a=1, v=Speed000, r=Zone000)
  movel(p[0.49241, -0.01794, 0.003, -2.22144, 2.22144, 0], a=1, v=Speed000, r=Zone000)
  movel(p[0.49241, -0.01794, 0.008, -2.22144, 2.22144, 0], a=1, v=Speed000, r=Zone000)
  movel(p[0.49241, -0.00687, 0.008, -2.22144, 2.22144, 0], a=1, v=Speed000, r=Zone000)
  movel(p[0.49241, -0.00687, 0.003, -2.22144, 2.22144, 0], a=1, v=Speed000, r=Zone000)
  movel(p[0.49241, -0.00584, 0.003, -2.22144, 2.22144, 0], a=1, v=Speed000, r=Zone000)
  movel(p[0.49241, -0.00584, 0.008, -2.22144, 2.22144, 0], a=1, v=Speed000, r=Zone000)
  movel(p[0.49241, 0.00184, 0.008, -2.22144, 2.22144, 0], a=1, v=Speed000, r=Zone000)
  movel(p[0.49241, 0.00184, 0.003, -2.22144, 2.22144, 0], a=1, v=Speed000, r=Zone000)
  movel(p[0.49241, 0.00273, 0.003, -2.22144, 2.22144, 0], a=1, v=Speed000, r=Zone000)
  movel(p[0.49241, 0.00273, 0.008, -2.22144, 2.22144, 0], a=1, v=Speed000, r=Zone000)
  movel(p[0.49241, 0.00523, 0.008, -2.22144, 2.22144, 0], a=1, v=Speed000, r=Zone000)
  movel(p[0.49241, 0.00523, 0.003, -2.22144, 2.22144, 0], a=1, v=Speed000, r=Zone000)
  movel(p[0.49241, 0.00618, 0.003, -2.22144, 2.22144, 0], a=1, v=Speed000, r=Zone000)
  movel(p[0.49241, 0.00618, 0.008, -2.22144, 2.22144, 0], a=1, v=Speed000, r=Zone000)
  movel(p[0.49241, 0.0123, 0.008, -2.22144, 2.22144, 0], a=1, v=Speed000, r=Zone000)
  movel(p[0.49241, 0.0123, 0.003, -2.22144, 2.22144, 0], a=1, v=Speed000, r=Zone000)
  movel(p[0.49241, 0.01321, 0.003, -2.22144, 2.22144, 0], a=1, v=Speed000, r=Zone000)
  movel(p[0.49241, 0.01321, 0.008, -2.22144, 2.22144, 0], a=1, v=Speed000, r=Zone000)
  movel(p[0.49241, 0.01395, 0.008, -2.22144, 2.22144, 0], a=1, v=Speed000, r=Zone000)
  movel(p[0.49241, 0.01395, 0.003, -2.22144, 2.22144, 0], a=1, v=Speed000, r=Zone000)
  movel(p[0.49241, 0.01492, 0.003, -2.22144, 2.22144, 0], a=1, v=Speed000, r=Zone000)
  movel(p[0.49241, 0.01492, 0.008, -2.22144, 2.22144, 0], a=1, v=Speed000, r=Zone000)
  movel(p[0.49241, 0.01845, 0.008, -2.22144, 2.22144, 0], a=1, v=Speed000, r=Zone000)
  movel(p[0.49241, 0.01845, 0.003, -2.22144, 2.22144, 0], a=1, v=Speed000, r=Zone000)
  movel(p[0.49241, 0.01941, 0.003, -2.22144, 2.22144, 0], a=1, v=Speed000, r=Zone000)
  movel(p[0.49241, 0.01941, 0.008, -2.22144, 2.22144, 0], a=1, v=Speed000, r=Zone000)
  movel(p[0.49301, -0.01849, 0.008, -2.22144, 2.22144, 0], a=1, v=Speed000, r=Zone000)
  movel(p[0.49301, -0.01849, 0.003, -2.22144, 2.22144, 0], a=1, v=Speed000, r=Zone000)
  movel(p[0.49301, -0.0176, 0.003, -2.22144, 2.22144, 0], a=1, v=Speed000, r=Zone000)
  movel(p[0.49301, -0.0176, 0.008, -2.22144, 2.22144, 0], a=1, v=Speed000, r=Zone000)
  movel(p[0.49301, -0.00653, 0.008, -2.22144, 2.22144, 0], a=1, v=Speed000, r=Zone000)
  movel(p[0.49301, -0.00653, 0.003, -2.22144, 2.22144, 0], a=1, v=Speed000, r=Zone000)
  movel(p[0.49301, -0.00549, 0.003, -2.22144, 2.22144, 0], a=1, v=Speed000, r=Zone000)
  movel(p[0.49301, -0.00549, 0.008, -2.22144, 2.22144, 0], a=1, v=Speed000, r=Zone000)
  movel(p[0.49301, 0.0015, 0.008, -2.22144, 2.22144, 0], a=1, v=Speed000, r=Zone000)
  movel(p[0.49301, 0.0015, 0.003, -2.22144, 2.22144, 0], a=1, v=Speed000, r=Zone000)
  movel(p[0.49301, 0.00239, 0.003, -2.22144, 2.22144, 0], a=1, v=Speed000, r=Zone000)
  movel(p[0.49301, 0.00239, 0.008, -2.22144, 2.22144, 0], a=1, v=Speed000, r=Zone000)
  movel(p[0.49301, 0.00558, 0.008, -2.22144, 2.22144, 0], a=1, v=Speed000, r=Zone000)
  movel(p[0.49301, 0.00558, 0.003, -2.22144, 2.22144, 0], a=1, v=Speed000, r=Zone000)
  movel(p[0.49301, 0.00653, 0.003, -2.22144, 2.22144, 0], a=1, v=Speed000, r=Zone000)
  movel(p[0.49301, 0.00653, 0.008, -2.22144, 2.22144, 0], a=1, v=Speed000, r=Zone000)
  movel(p[0.49301, 0.01266, 0.008, -2.22144, 2.22144, 0], a=1, v=Speed000, r=Zone000)
  movel(p[0.49301, 0.01266, 0.003, -2.22144, 2.22144, 0], a=1, v=Speed000, r=Zone000)
  movel(p[0.49301, 0.01356, 0.003, -2.22144, 2.22144, 0], a=1, v=Speed000, r=Zone000)
  movel(p[0.49301, 0.01356, 0.008, -2.22144, 2.22144, 0], a=1, v=Speed000, r=Zone000)
  movel(p[0.49301, 0.01361, 0.008, -2.22144, 2.22144, 0], a=1, v=Speed000, r=Zone000)
  movel(p[0.49301, 0.01361, 0.003, -2.22144, 2.22144, 0], a=1, v=Speed000, r=Zone000)
  movel(p[0.49301, 0.01458, 0.003, -2.22144, 2.22144, 0], a=1, v=Speed000, r=Zone000)
  movel(p[0.49301, 0.01458, 0.008, -2.22144, 2.22144, 0], a=1, v=Speed000, r=Zone000)
  movel(p[0.49301, 0.01885, 0.008, -2.22144, 2.22144, 0], a=1, v=Speed000, r=Zone000)
  movel(p[0.49301, 0.01885, 0.003, -2.22144, 2.22144, 0], a=1, v=Speed000, r=Zone000)
  movel(p[0.49301, 0.01966, 0.003, -2.22144, 2.22144, 0], a=1, v=Speed000, r=Zone000)
  movel(p[0.49301, 0.01966, 0.008, -2.22144, 2.22144, 0], a=1, v=Speed000, r=Zone000)
  movel(p[0.49361, -0.01815, 0.008, -2.22144, 2.22144, 0], a=1, v=Speed000, r=Zone000)
  movel(p[0.49361, -0.01815, 0.003, -2.22144, 2.22144, 0], a=1, v=Speed000, r=Zone000)
  movel(p[0.49361, -0.01725, 0.003, -2.22144, 2.22144, 0], a=1, v=Speed000, r=Zone000)
  movel(p[0.49361, -0.01725, 0.008, -2.22144, 2.22144, 0], a=1, v=Speed000, r=Zone000)
  movel(p[0.49361, -0.00618, 0.008, -2.22144, 2.22144, 0], a=1, v=Speed000, r=Zone000)
  movel(p[0.49361, -0.00618, 0.003, -2.22144, 2.22144, 0], a=1, v=Speed000, r=Zone000)
  movel(p[0.49361, -0.00514, 0.003, -2.22144, 2.22144, 0], a=1, v=Speed000, r=Zone000)
  movel(p[0.49361, -0.00514, 0.008, -2.22144, 2.22144, 0], a=1, v=Speed000, r=Zone000)
  movel(p[0.49361, 0.00117, 0.008, -2.22144, 2.22144, 0], a=1, v=Speed000, r=Zone000)
  movel(p[0.49361, 0.00117, 0.003, -2.22144, 2.22144, 0], a=1, v=Speed000, r=Zone000)
  movel(p[0.49361, 0.00205, 0.003, -2.22144, 2.22144, 0], a=1, v=Speed000, r=Zone000)
  movel(p[0.49361, 0.00205, 0.008, -2.22144, 2.22144, 0], a=1, v=Speed000, r=Zone000)
  movel(p[0.49361, 0.00592, 0.008, -2.22144, 2.22144, 0], a=1, v=Speed000, r=Zone000)
  movel(p[0.49361, 0.00592, 0.003, -2.22144, 2.22144, 0], a=1, v=Speed000, r=Zone000)
  movel(p[0.49361, 0.00688, 0.003, -2.22144, 2.22144, 0], a=1, v=Speed000, r=Zone000)
  movel(p[0.49361, 0.00688, 0.008, -2.22144, 2.22144, 0], a=1, v=Speed000, r=Zone000)
  movel(p[0.49361, 0.01301, 0.008, -2.22144, 2.22144, 0], a=1, v=Speed000, r=Zone000)
  movel(p[0.49361, 0.01301, 0.003, -2.22144, 2.22144, 0], a=1, v=Speed000, r=Zone000)
  movel(p[0.49361, 0.01423, 0.003, -2.22144, 2.22144, 0], a=1, v=Speed000, r=Zone000)
  movel(p[0.49361, 0.01423, 0.008, -2.22144, 2.22144, 0], a=1, v=Speed000, r=Zone000)
  movel(p[0.49361, 0.01898, 0.008, -2.22144, 2.22144, 0], a=1, v=Speed000, r=Zone000)
  movel(p[0.49361, 0.01898, 0.003, -2.22144, 2.22144, 0], a=1, v=Speed000, r=Zone000)
  movel(p[0.49361, 0.01975, 0.003, -2.22144, 2.22144, 0], a=1, v=Speed000, r=Zone000)
  movel(p[0.49361, 0.01975, 0.008, -2.22144, 2.22144, 0], a=1, v=Speed000, r=Zone000)
  movel(p[0.49421, -0.0178, 0.008, -2.22144, 2.22144, 0], a=1, v=Speed000, r=Zone000)
  movel(p[0.49421, -0.0178, 0.003, -2.22144, 2.22144, 0], a=1, v=Speed000, r=Zone000)
  movel(p[0.49421, -0.01691, 0.003, -2.22144, 2.22144, 0], a=1, v=Speed000, r=Zone000)
  movel(p[0.49421, -0.01691, 0.008, -2.22144, 2.22144, 0], a=1, v=Speed000, r=Zone000)
  movel(p[0.49421, -0.00584, 0.008, -2.22144, 2.22144, 0], a=1, v=Speed000, r=Zone000)
  movel(p[0.49421, -0.00584, 0.003, -2.22144, 2.22144, 0], a=1, v=Speed000, r=Zone000)
  movel(p[0.49421, -0.0048, 0.003, -2.22144, 2.22144, 0], a=1, v=Speed000, r=Zone000)
  movel(p[0.49421, -0.0048, 0.008, -2.22144, 2.22144, 0], a=1, v=Speed000, r=Zone000)
  movel(p[0.49421, 0.00083, 0.008, -2.22144, 2.22144, 0], a=1, v=Speed000, r=Zone000)
  movel(p[0.49421, 0.00083, 0.003, -2.22144, 2.22144, 0], a=1, v=Speed000, r=Zone000)
  movel(p[0.49421, 0.00172, 0.003, -2.22144, 2.22144, 0], a=1, v=Speed000, r=Zone000)
  movel(p[0.49421, 0.00172, 0.008, -2.22144, 2.22144, 0], a=1, v=Speed000, r=Zone000)
  movel(p[0.49421, 0.00627, 0.008, -2.22144, 2.22144, 0], a=1, v=Speed000, r=Zone000)
  movel(p[0.49421, 0.00627, 0.003, -2.22144, 2.22144, 0], a=1, v=Speed000, r=Zone000)
  movel(p[0.49421, 0.00722, 0.003, -2.22144, 2.22144, 0], a=1, v=Speed000, r=Zone000)
  movel(p[0.49421, 0.00722, 0.008, -2.22144, 2.22144, 0], a=1, v=Speed000, r=Zone000)
  movel(p[0.49421, 0.01293, 0.008, -2.22144, 2.22144, 0], a=1, v=Speed000, r=Zone000)
  movel(p[0.49421, 0.01293, 0.003, -2.22144, 2.22144, 0], a=1, v=Speed000, r=Zone000)
  movel(p[0.49421, 0.01427, 0.003, -2.22144, 2.22144, 0], a=1, v=Speed000, r=Zone000)
  movel(p[0.49421, 0.01427, 0.008, -2.22144, 2.22144, 0], a=1, v=Speed000, r=Zone000)
  movel(p[0.49421, 0.01892, 0.008, -2.22144, 2.22144, 0], a=1, v=Speed000, r=Zone000)
  movel(p[0.49421, 0.01892, 0.003, -2.22144, 2.22144, 0], a=1, v=Speed000, r=Zone000)
  movel(p[0.49421, 0.01971, 0.003, -2.22144, 2.22144, 0], a=1, v=Speed000, r=Zone000)
  movel(p[0.49421, 0.01971, 0.008, -2.22144, 2.22144, 0], a=1, v=Speed000, r=Zone000)
  movel(p[0.49481, -0.01746, 0.008, -2.22144, 2.22144, 0], a=1, v=Speed000, r=Zone000)
  movel(p[0.49481, -0.01746, 0.003, -2.22144, 2.22144, 0], a=1, v=Speed000, r=Zone000)
  movel(p[0.49481, -0.01656, 0.003, -2.22144, 2.22144, 0], a=1, v=Speed000, r=Zone000)
  movel(p[0.49481, -0.01656, 0.008, -2.22144, 2.22144, 0], a=1, v=Speed000, r=Zone000)
  movel(p[0.49481, -0.0055, 0.008, -2.22144, 2.22144, 0], a=1, v=Speed000, r=Zone000)
  movel(p[0.49481, -0.0055, 0.003, -2.22144, 2.22144, 0], a=1, v=Speed000, r=Zone000)
  movel(p[0.49481, -0.00445, 0.003, -2.22144, 2.22144, 0], a=1, v=Speed000, r=Zone000)
  movel(p[0.49481, -0.00445, 0.008, -2.22144, 2.22144, 0], a=1, v=Speed000, r=Zone000)
  movel(p[0.49481, 0.00049, 0.008, -2.22144, 2.22144, 0], a=1, v=Speed000, r=Zone000)
  movel(p[0.49481, 0.00049, 0.003, -2.22144, 2.22144, 0], a=1, v=Speed000, r=Zone000)
  movel(p[0.49481, 0.00138, 0.003, -2.22144, 2.22144, 0], a=1, v=Speed000, r=Zone000)
  movel(p[0.49481, 0.00138, 0.008, -2.22144, 2.22144, 0], a=1, v=Speed000, r=Zone000)
  movel(p[0.49481, 0.00661, 0.008, -2.22144, 2.22144, 0], a=1, v=Speed000, r=Zone000)
  movel(p[0.49481, 0.00661, 0.003, -2.22144, 2.22144, 0], a=1, v=Speed000, r=Zone000)
  movel(p[0.49481, 0.00757, 0.003, -2.22144, 2.22144, 0], a=1, v=Speed000, r=Zone000)
  movel(p[0.49481, 0.00757, 0.008, -2.22144, 2.22144, 0], a=1, v=Speed000, r=Zone000)
  movel(p[0.49481, 0.01259, 0.008, -2.22144, 2.22144, 0], a=1, v=Speed000, r=Zone000)
  movel(p[0.49481, 0.01259, 0.003, -2.22144, 2.22144, 0], a=1, v=Speed000, r=Zone000)
  movel(p[0.49481, 0.01353, 0.003, -2.22144, 2.22144, 0], a=1, v=Speed000, r=Zone000)
  movel(p[0.49481, 0.01353, 0.008, -2.22144, 2.22144, 0], a=1, v=Speed000, r=Zone000)
  movel(p[0.49481, 0.01373, 0.008, -2.22144, 2.22144, 0], a=1, v=Speed000, r=Zone000)
  movel(p[0.49481, 0.01373, 0.003, -2.22144, 2.22144, 0], a=1, v=Speed000, r=Zone000)
  movel(p[0.49481, 0.01463, 0.003, -2.22144, 2.22144, 0], a=1, v=Speed000, r=Zone000)
  movel(p[0.49481, 0.01463, 0.008, -2.22144, 2.22144, 0], a=1, v=Speed000, r=Zone000)
  movel(p[0.49481, 0.01872, 0.008, -2.22144, 2.22144, 0], a=1, v=Speed000, r=Zone000)
  movel(p[0.49481, 0.01872, 0.003, -2.22144, 2.22144, 0], a=1, v=Speed000, r=Zone000)
  movel(p[0.49481, 0.01956, 0.003, -2.22144, 2.22144, 0], a=1, v=Speed000, r=Zone000)
  movel(p[0.49481, 0.01956, 0.008, -2.22144, 2.22144, 0], a=1, v=Speed000, r=Zone000)
  movel(p[0.49541, -0.01711, 0.008, -2.22144, 2.22144, 0], a=1, v=Speed000, r=Zone000)
  movel(p[0.49541, -0.01711, 0.003, -2.22144, 2.22144, 0], a=1, v=Speed000, r=Zone000)
  movel(p[0.49541, -0.01622, 0.003, -2.22144, 2.22144, 0], a=1, v=Speed000, r=Zone000)
  movel(p[0.49541, -0.01622, 0.008, -2.22144, 2.22144, 0], a=1, v=Speed000, r=Zone000)
  movel(p[0.49541, -0.00515, 0.008, -2.22144, 2.22144, 0], a=1, v=Speed000, r=Zone000)
  movel(p[0.49541, -0.00515, 0.003, -2.22144, 2.22144, 0], a=1, v=Speed000, r=Zone000)
  movel(p[0.49541, -0.00411, 0.003, -2.22144, 2.22144, 0], a=1, v=Speed000, r=Zone000)
  movel(p[0.49541, -0.00411, 0.008, -2.22144, 2.22144, 0], a=1, v=Speed000, r=Zone000)
  movel(p[0.49541, 0.00015, 0.008, -2.22144, 2.22144, 0], a=1, v=Speed000, r=Zone000)
  movel(p[0.49541, 0.00015, 0.003, -2.22144, 2.22144, 0], a=1, v=Speed000, r=Zone000)
  movel(p[0.49541, 0.00104, 0.003, -2.22144, 2.22144, 0], a=1, v=Speed000, r=Zone000)
  movel(p[0.49541, 0.00104, 0.008, -2.22144, 2.22144, 0], a=1, v=Speed000, r=Zone000)
  movel(p[0.49541, 0.00695, 0.008, -2.22144, 2.22144, 0], a=1, v=Speed000, r=Zone000)
  movel(p[0.49541, 0.00695, 0.003, -2.22144, 2.22144, 0], a=1, v=Speed000, r=Zone000)
  movel(p[0.49541, 0.00791, 0.003, -2.22144, 2.22144, 0], a=1, v=Speed000, r=Zone000)
  movel(p[0.49541, 0.00791, 0.008, -2.22144, 2.22144, 0], a=1, v=Speed000, r=Zone000)
  movel(p[0.49541, 0.01225, 0.008, -2.22144, 2.22144, 0], a=1, v=Speed000, r=Zone000)
  movel(p[0.49541, 0.01225, 0.003, -2.22144, 2.22144, 0], a=1, v=Speed000, r=Zone000)
  movel(p[0.49541, 0.01319, 0.003, -2.22144, 2.22144, 0], a=1, v=Speed000, r=Zone000)
  movel(p[0.49541, 0.01319, 0.008, -2.22144, 2.22144, 0], a=1, v=Speed000, r=Zone000)
  movel(p[0.49541, 0.01408, 0.008, -2.22144, 2.22144, 0], a=1, v=Speed000, r=Zone000)
  movel(p[0.49541, 0.01408, 0.003, -2.22144, 2.22144, 0], a=1, v=Speed000, r=Zone000)
  movel(p[0.49541, 0.01498, 0.003, -2.22144, 2.22144, 0], a=1, v=Speed000, r=Zone000)
  movel(p[0.49541, 0.01498, 0.008, -2.22144, 2.22144, 0], a=1, v=Speed000, r=Zone000)
  movel(p[0.49541, 0.01842, 0.008, -2.22144, 2.22144, 0], a=1, v=Speed000, r=Zone000)
  movel(p[0.49541, 0.01842, 0.003, -2.22144, 2.22144, 0], a=1, v=Speed000, r=Zone000)
  movel(p[0.49541, 0.0193, 0.003, -2.22144, 2.22144, 0], a=1, v=Speed000, r=Zone000)
  movel(p[0.49541, 0.0193, 0.008, -2.22144, 2.22144, 0], a=1, v=Speed000, r=Zone000)
  movel(p[0.49601, -0.01677, 0.008, -2.22144, 2.22144, 0], a=1, v=Speed000, r=Zone000)
  movel(p[0.49601, -0.01677, 0.003, -2.22144, 2.22144, 0], a=1, v=Speed000, r=Zone000)
  movel(p[0.49601, -0.01587, 0.003, -2.22144, 2.22144, 0], a=1, v=Speed000, r=Zone000)
  movel(p[0.49601, -0.01587, 0.008, -2.22144, 2.22144, 0], a=1, v=Speed000, r=Zone000)
  movel(p[0.49601, -0.00481, 0.008, -2.22144, 2.22144, 0], a=1, v=Speed000, r=Zone000)
  movel(p[0.49601, -0.00481, 0.003, -2.22144, 2.22144, 0], a=1, v=Speed000, r=Zone000)
  movel(p[0.49601, -0.00376, 0.003, -2.22144, 2.22144, 0], a=1, v=Speed000, r=Zone000)
  movel(p[0.49601, -0.00376, 0.008, -2.22144, 2.22144, 0], a=1, v=Speed000, r=Zone000)
  movel(p[0.49601, -0.00019, 0.008, -2.22144, 2.22144, 0], a=1, v=Speed000, r=Zone000)
  movel(p[0.49601, -0.00019, 0.003, -2.22144, 2.22144, 0], a=1, v=Speed000, r=Zone000)
  movel(p[0.49601, 0.0007, 0.003, -2.22144, 2.22144, 0], a=1, v=Speed000, r=Zone000)
  movel(p[0.49601, 0.0007, 0.008, -2.22144, 2.22144, 0], a=1, v=Speed000, r=Zone000)
  movel(p[0.49601, 0.0073, 0.008, -2.22144, 2.22144, 0], a=1, v=Speed000, r=Zone000)
  movel(p[0.49601, 0.0073, 0.003, -2.22144, 2.22144, 0], a=1, v=Speed000, r=Zone000)
  movel(p[0.49601, 0.00826, 0.003, -2.22144, 2.22144, 0], a=1, v=Speed000, r=Zone000)
  movel(p[0.49601, 0.00826, 0.008, -2.22144, 2.22144, 0], a=1, v=Speed000, r=Zone000)
  movel(p[0.49601, 0.01192, 0.008, -2.22144, 2.22144, 0], a=1, v=Speed000, r=Zone000)
  movel(p[0.49601, 0.01192, 0.003, -2.22144, 2.22144, 0], a=1, v=Speed000, r=Zone000)
  movel(p[0.49601, 0.01284, 0.003, -2.22144, 2.22144, 0], a=1, v=Speed000, r=Zone000)
  movel(p[0.49601, 0.01284, 0.008, -2.22144, 2.22144, 0], a=1, v=Speed000, r=Zone000)
  movel(p[0.49601, 0.01444, 0.008, -2.22144, 2.22144, 0], a=1, v=Speed000, r=Zone000)
  movel(p[0.49601, 0.01444, 0.003, -2.22144, 2.22144, 0], a=1, v=Speed000, r=Zone000)
  movel(p[0.49601, 0.01534, 0.003, -2.22144, 2.22144, 0], a=1, v=Speed000, r=Zone000)
  movel(p[0.49601, 0.01534, 0.008, -2.22144, 2.22144, 0], a=1, v=Speed000, r=Zone000)
  movel(p[0.49601, 0.01802, 0.008, -2.22144, 2.22144, 0], a=1, v=Speed000, r=Zone000)
  movel(p[0.49601, 0.01802, 0.003, -2.22144, 2.22144, 0], a=1, v=Speed000, r=Zone000)
  movel(p[0.49601, 0.01896, 0.003, -2.22144, 2.22144, 0], a=1, v=Speed000, r=Zone000)
  movel(p[0.49601, 0.01896, 0.008, -2.22144, 2.22144, 0], a=1, v=Speed000, r=Zone000)
  movel(p[0.49661, -0.01642, 0.008, -2.22144, 2.22144, 0], a=1, v=Speed000, r=Zone000)
  movel(p[0.49661, -0.01642, 0.003, -2.22144, 2.22144, 0], a=1, v=Speed000, r=Zone000)
  movel(p[0.49661, -0.00342, 0.003, -2.22144, 2.22144, 0], a=1, v=Speed000, r=Zone000)
  movel(p[0.49661, -0.00342, 0.008, -2.22144, 2.22144, 0], a=1, v=Speed000, r=Zone000)
  movel(p[0.49661, -0.00053, 0.008, -2.22144, 2.22144, 0], a=1, v=Speed000, r=Zone000)
  movel(p[0.49661, -0.00053, 0.003, -2.22144, 2.22144, 0], a=1, v=Speed000, r=Zone000)
  movel(p[0.49661, 0.00036, 0.003, -2.22144, 2.22144, 0], a=1, v=Speed000, r=Zone000)
  movel(p[0.49661, 0.00036, 0.008, -2.22144, 2.22144, 0], a=1, v=Speed000, r=Zone000)
  movel(p[0.49661, 0.00764, 0.008, -2.22144, 2.22144, 0], a=1, v=Speed000, r=Zone000)
  movel(p[0.49661, 0.00764, 0.003, -2.22144, 2.22144, 0], a=1, v=Speed000, r=Zone000)
  movel(p[0.49661, 0.00861, 0.003, -2.22144, 2.22144, 0], a=1, v=Speed000, r=Zone000)
  movel(p[0.49661, 0.00861, 0.008, -2.22144, 2.22144, 0], a=1, v=Speed000, r=Zone000)
  movel(p[0.49661, 0.01158, 0.008, -2.22144, 2.22144, 0], a=1, v=Speed000, r=Zone000)
  movel(p[0.49661, 0.01158, 0.003, -2.22144, 2.22144, 0], a=1, v=Speed000, r=Zone000)
  movel(p[0.49661, 0.0125, 0.003, -2.22144, 2.22144, 0], a=1, v=Speed000, r=Zone000)
  movel(p[0.49661, 0.0125, 0.008, -2.22144, 2.22144, 0], a=1, v=Speed000, r=Zone000)
  movel(p[0.49661, 0.01479, 0.008, -2.22144, 2.22144, 0], a=1, v=Speed000, r=Zone000)
  movel(p[0.49661, 0.01479, 0.003, -2.22144, 2.22144, 0], a=1, v=Speed000, r=Zone000)
  movel(p[0.49661, 0.01569, 0.003, -2.22144, 2.22144, 0], a=1, v=Speed000, r=Zone000)
  movel(p[0.49661, 0.01569, 0.008, -2.22144, 2.22144, 0], a=1, v=Speed000, r=Zone000)
  movel(p[0.49661, 0.01751, 0.008, -2.22144, 2.22144, 0], a=1, v=Speed000, r=Zone000)
  movel(p[0.49661, 0.01751, 0.003, -2.22144, 2.22144, 0], a=1, v=Speed000, r=Zone000)
  movel(p[0.49661, 0.01854, 0.003, -2.22144, 2.22144, 0], a=1, v=Speed000, r=Zone000)
  movel(p[0.49661, 0.01854, 0.008, -2.22144, 2.22144, 0], a=1, v=Speed000, r=Zone000)
  movel(p[0.49721, -0.01668, 0.008, -2.22144, 2.22144, 0], a=1, v=Speed000, r=Zone000)
  movel(p[0.49721, -0.01668, 0.003, -2.22144, 2.22144, 0], a=1, v=Speed000, r=Zone000)
  movel(p[0.49721, -0.01507, 0.003, -2.22144, 2.22144, 0], a=1, v=Speed000, r=Zone000)
  movel(p[0.49721, -0.01507, 0.008, -2.22144, 2.22144, 0], a=1, v=Speed000, r=Zone000)
  movel(p[0.49721, -0.00472, 0.008, -2.22144, 2.22144, 0], a=1, v=Speed000, r=Zone000)
  movel(p[0.49721, -0.00472, 0.003, -2.22144, 2.22144, 0], a=1, v=Speed000, r=Zone000)
  movel(p[0.49721, -0.00307, 0.003, -2.22144, 2.22144, 0], a=1, v=Speed000, r=Zone000)
  movel(p[0.49721, -0.00307, 0.008, -2.22144, 2.22144, 0], a=1, v=Speed000, r=Zone000)
  movel(p[0.49721, -0.00086, 0.008, -2.22144, 2.22144, 0], a=1, v=Speed000, r=Zone000)
  movel(p[0.49721, -0.00086, 0.003, -2.22144, 2.22144, 0], a=1, v=Speed000, r=Zone000)
  movel(p[0.49721, 0.00002, 0.003, -2.22144, 2.22144, 0], a=1, v=Speed000, r=Zone000)
  movel(p[0.49721, 0.00002, 0.008, -2.22144, 2.22144, 0], a=1, v=Speed000, r=Zone000)
  movel(p[0.49721, 0.00798, 0.008, -2.22144, 2.22144, 0], a=1, v=Speed000, r=Zone000)
  movel(p[0.49721, 0.00798, 0.003, -2.22144, 2.22144, 0], a=1, v=Speed000, r=Zone000)
  movel(p[0.49721, 0.00895, 0.003, -2.22144, 2.22144, 0], a=1, v=Speed000, r=Zone000)
  movel(p[0.49721, 0.00895, 0.008, -2.22144, 2.22144, 0], a=1, v=Speed000, r=Zone000)
  movel(p[0.49721, 0.01124, 0.008, -2.22144, 2.22144, 0], a=1, v=Speed000, r=Zone000)
  movel(p[0.49721, 0.01124, 0.003, -2.22144, 2.22144, 0], a=1, v=Speed000, r=Zone000)
  movel(p[0.49721, 0.01215, 0.003, -2.22144, 2.22144, 0], a=1, v=Speed000, r=Zone000)
  movel(p[0.49721, 0.01215, 0.008, -2.22144, 2.22144, 0], a=1, v=Speed000, r=Zone000)
  movel(p[0.49721, 0.01515, 0.008, -2.22144, 2.22144, 0], a=1, v=Speed000, r=Zone000)
  movel(p[0.49721, 0.01515, 0.003, -2.22144, 2.22144, 0], a=1, v=Speed000, r=Zone000)
  movel(p[0.49721, 0.01605, 0.003, -2.22144, 2.22144, 0], a=1, v=Speed000, r=Zone000)
  movel(p[0.49721, 0.01605, 0.008, -2.22144, 2.22144, 0], a=1, v=Speed000, r=Zone000)
  movel(p[0.49721, 0.01686, 0.008, -2.22144, 2.22144, 0], a=1, v=Speed000, r=Zone000)
  movel(p[0.49721, 0.01686, 0.003, -2.22144, 2.22144, 0], a=1, v=Speed000, r=Zone000)
  movel(p[0.49721, 0.01802, 0.003, -2.22144, 2.22144, 0], a=1, v=Speed000, r=Zone000)
  movel(p[0.49721, 0.01802, 0.008, -2.22144, 2.22144, 0], a=1, v=Speed000, r=Zone000)
  movel(p[0.49781, -0.017, 0.008, -2.22144, 2.22144, 0], a=1, v=Speed000, r=Zone000)
  movel(p[0.49781, -0.017, 0.003, -2.22144, 2.22144, 0], a=1, v=Speed000, r=Zone000)
  movel(p[0.49781, -0.01612, 0.003, -2.22144, 2.22144, 0], a=1, v=Speed000, r=Zone000)
  movel(p[0.49781, -0.01612, 0.008, -2.22144, 2.22144, 0], a=1, v=Speed000, r=Zone000)
  movel(p[0.49781, -0.01573, 0.008, -2.22144, 2.22144, 0], a=1, v=Speed000, r=Zone000)
  movel(p[0.49781, -0.01573, 0.003, -2.22144, 2.22144, 0], a=1, v=Speed000, r=Zone000)
  movel(p[0.49781, -0.01475, 0.003, -2.22144, 2.22144, 0], a=1, v=Speed000, r=Zone000)
  movel(p[0.49781, -0.01475, 0.008, -2.22144, 2.22144, 0], a=1, v=Speed000, r=Zone000)
  movel(p[0.49781, -0.00504, 0.008, -2.22144, 2.22144, 0], a=1, v=Speed000, r=Zone000)
  movel(p[0.49781, -0.00504, 0.003, -2.22144, 2.22144, 0], a=1, v=Speed000, r=Zone000)
  movel(p[0.49781, -0.00416, 0.003, -2.22144, 2.22144, 0], a=1, v=Speed000, r=Zone000)
  movel(p[0.49781, -0.00416, 0.008, -2.22144, 2.22144, 0], a=1, v=Speed000, r=Zone000)
  movel(p[0.49781, -0.00378, 0.008, -2.22144, 2.22144, 0], a=1, v=Speed000, r=Zone000)
  movel(p[0.49781, -0.00378, 0.003, -2.22144, 2.22144, 0], a=1, v=Speed000, r=Zone000)
  movel(p[0.49781, -0.00273, 0.003, -2.22144, 2.22144, 0], a=1, v=Speed000, r=Zone000)
  movel(p[0.49781, -0.00273, 0.008, -2.22144, 2.22144, 0], a=1, v=Speed000, r=Zone000)
  movel(p[0.49781, -0.0012, 0.008, -2.22144, 2.22144, 0], a=1, v=Speed000, r=Zone000)
  movel(p[0.49781, -0.0012, 0.003, -2.22144, 2.22144, 0], a=1, v=Speed000, r=Zone000)
  movel(p[0.49781, -0.00031, 0.003, -2.22144, 2.22144, 0], a=1, v=Speed000, r=Zone000)
  movel(p[0.49781, -0.00031, 0.008, -2.22144, 2.22144, 0], a=1, v=Speed000, r=Zone000)
  movel(p[0.49781, 0.00833, 0.008, -2.22144, 2.22144, 0], a=1, v=Speed000, r=Zone000)
  movel(p[0.49781, 0.00833, 0.003, -2.22144, 2.22144, 0], a=1, v=Speed000, r=Zone000)
  movel(p[0.49781, 0.0093, 0.003, -2.22144, 2.22144, 0], a=1, v=Speed000, r=Zone000)
  movel(p[0.49781, 0.0093, 0.008, -2.22144, 2.22144, 0], a=1, v=Speed000, r=Zone000)
  movel(p[0.49781, 0.0109, 0.008, -2.22144, 2.22144, 0], a=1, v=Speed000, r=Zone000)
  movel(p[0.49781, 0.0109, 0.003, -2.22144, 2.22144, 0], a=1, v=Speed000, r=Zone000)
  movel(p[0.49781, 0.0118, 0.003, -2.22144, 2.22144, 0], a=1, v=Speed000, r=Zone000)
  movel(p[0.49781, 0.0118, 0.008, -2.22144, 2.22144, 0], a=1, v=Speed000, r=Zone000)
  movel(p[0.49781, 0.0155, 0.008, -2.22144, 2.22144, 0], a=1, v=Speed000, r=Zone000)
  movel(p[0.49781, 0.0155, 0.003, -2.22144, 2.22144, 0], a=1, v=Speed000, r=Zone000)
  movel(p[0.49781, 0.01737, 0.003, -2.22144, 2.22144, 0], a=1, v=Speed000, r=Zone000)
  movel(p[0.49781, 0.01737, 0.008, -2.22144, 2.22144, 0], a=1, v=Speed000, r=Zone000)
  movel(p[0.49841, -0.01732, 0.008, -2.22144, 2.22144, 0], a=1, v=Speed000, r=Zone000)
  movel(p[0.49841, -0.01732, 0.003, -2.22144, 2.22144, 0], a=1, v=Speed000, r=Zone000)
  movel(p[0.49841, -0.01644, 0.003, -2.22144, 2.22144, 0], a=1, v=Speed000, r=Zone000)
  movel(p[0.49841, -0.01644, 0.008, -2.22144, 2.22144, 0], a=1, v=Speed000, r=Zone000)
  movel(p[0.49841, -0.01538, 0.008, -2.22144, 2.22144, 0], a=1, v=Speed000, r=Zone000)
  movel(p[0.49841, -0.01538, 0.003, -2.22144, 2.22144, 0], a=1, v=Speed000, r=Zone000)
  movel(p[0.49841, -0.01443, 0.003, -2.22144, 2.22144, 0], a=1, v=Speed000, r=Zone000)
  movel(p[0.49841, -0.01443, 0.008, -2.22144, 2.22144, 0], a=1, v=Speed000, r=Zone000)
  movel(p[0.49841, -0.00537, 0.008, -2.22144, 2.22144, 0], a=1, v=Speed000, r=Zone000)
  movel(p[0.49841, -0.00537, 0.003, -2.22144, 2.22144, 0], a=1, v=Speed000, r=Zone000)
  movel(p[0.49841, -0.00449, 0.003, -2.22144, 2.22144, 0], a=1, v=Speed000, r=Zone000)
  movel(p[0.49841, -0.00449, 0.008, -2.22144, 2.22144, 0], a=1, v=Speed000, r=Zone000)
  movel(p[0.49841, -0.00344, 0.008, -2.22144, 2.22144, 0], a=1, v=Speed000, r=Zone000)
  movel(p[0.49841, -0.00344, 0.003, -2.22144, 2.22144, 0], a=1, v=Speed000, r=Zone000)
  movel(p[0.49841, -0.00238, 0.003, -2.22144, 2.22144, 0], a=1, v=Speed000, r=Zone000)
  movel(p[0.49841, -0.00238, 0.008, -2.22144, 2.22144, 0], a=1, v=Speed000, r=Zone000)
  movel(p[0.49841, -0.00154, 0.008, -2.22144, 2.22144, 0], a=1, v=Speed000, r=Zone000)
  movel(p[0.49841, -0.00154, 0.003, -2.22144, 2.22144, 0], a=1, v=Speed000, r=Zone000)
  movel(p[0.49841, -0.00065, 0.003, -2.22144, 2.22144, 0], a=1, v=Speed000, r=Zone000)
  movel(p[0.49841, -0.00065, 0.008, -2.22144, 2.22144, 0], a=1, v=Speed000, r=Zone000)
  movel(p[0.49841, 0.00867, 0.008, -2.22144, 2.22144, 0], a=1, v=Speed000, r=Zone000)
  movel(p[0.49841, 0.00867, 0.003, -2.22144, 2.22144, 0], a=1, v=Speed000, r=Zone000)
  movel(p[0.49841, 0.00964, 0.003, -2.22144, 2.22144, 0], a=1, v=Speed000, r=Zone000)
  movel(p[0.49841, 0.00964, 0.008, -2.22144, 2.22144, 0], a=1, v=Speed000, r=Zone000)
  movel(p[0.49841, 0.01056, 0.008, -2.22144, 2.22144, 0], a=1, v=Speed000, r=Zone000)
  movel(p[0.49841, 0.01056, 0.003, -2.22144, 2.22144, 0], a=1, v=Speed000, r=Zone000)
  movel(p[0.49841, 0.01146, 0.003, -2.22144, 2.22144, 0], a=1, v=Speed000, r=Zone000)
  movel(p[0.49841, 0.01146, 0.008, -2.22144, 2.22144, 0], a=1, v=Speed000, r=Zone000)
  movel(p[0.49841, 0.01493, 0.008, -2.22144, 2.22144, 0], a=1, v=Speed000, r=Zone000)
  movel(p[0.49841, 0.01493, 0.003, -2.22144, 2.22144, 0], a=1, v=Speed000, r=Zone000)
  movel(p[0.49841, 0.01655, 0.003, -2.22144, 2.22144, 0], a=1, v=Speed000, r=Zone000)
  movel(p[0.49841, 0.01655, 0.008, -2.22144, 2.22144, 0], a=1, v=Speed000, r=Zone000)
  movel(p[0.49901, -0.01765, 0.008, -2.22144, 2.22144, 0], a=1, v=Speed000, r=Zone000)
  movel(p[0.49901, -0.01765, 0.003, -2.22144, 2.22144, 0], a=1, v=Speed000, r=Zone000)
  movel(p[0.49901, -0.01676, 0.003, -2.22144, 2.22144, 0], a=1, v=Speed000, r=Zone000)
  movel(p[0.49901, -0.01676, 0.008, -2.22144, 2.22144, 0], a=1, v=Speed000, r=Zone000)
  movel(p[0.49901, -0.01504, 0.008, -2.22144, 2.22144, 0], a=1, v=Speed000, r=Zone000)
  movel(p[0.49901, -0.01504, 0.003, -2.22144, 2.22144, 0], a=1, v=Speed000, r=Zone000)
  movel(p[0.49901, -0.01411, 0.003, -2.22144, 2.22144, 0], a=1, v=Speed000, r=Zone000)
  movel(p[0.49901, -0.01411, 0.008, -2.22144, 2.22144, 0], a=1, v=Speed000, r=Zone000)
  movel(p[0.49901, -0.00569, 0.008, -2.22144, 2.22144, 0], a=1, v=Speed000, r=Zone000)
